!!!!SEGMENT: pl-wtm--r-1760_stefani-jozef--orchestral-piece.krn
!!!id: 18xx:1910
!!!COM: Stefani, Józef
!!!COM-rism: pe30024097
!!!CDT: 1800/04/16-1876/03/19
!!!CNT: Polish
!!!OTL: Orchestral piece
!!!PDT:
!!!SMS-siglum: PL-Wtm
!!!SMS-shelfmark: R 1760
!!!NIFC-rismID: 1001131403
!!!URL-scan: http://repozytorium.nifc.pl/skany/pl-wtm-nut--r1760--r1761
!!!ONB-nifc: UWAGA: pierwsza partytura, do skanu 0006
!!!SMS-variant:
!!!SMS-altvar:
**kern	**dynam	**kern	**dynam	**kern	**dynam	**kern	**dynam	**kern	**dynam	**kern	**dynam	**kern	**dynam	**kern	**dynam	**kern	**dynam	**kern	**dynam	**kern	**dynam	**kern	**dynam	**kern	**dynam	**kern	**dynam	**kern	**dynam
*part15	*part15	*part14	*part14	*part13	*part13	*part12	*part12	*part11	*part11	*part10	*part10	*part9	*part9	*part8	*part8	*part7	*part7	*part6	*part6	*part5	*part5	*part4	*part4	*part3	*part3	*part2	*part2	*part1	*part1
*staff15	*	*staff14	*	*staff13	*	*staff12	*	*staff11	*	*staff10	*	*staff9	*	*staff8	*	*staff7	*	*staff6	*	*staff5	*	*staff4	*	*staff3	*	*staff2	*	*staff1	*
*I"Timpani	*	*I"C: Basſi	*	*I"Violoncelli	*	*I"Viole	*	*I"Violini	*	*I"Violini	*	*I"Trombone	*	*I"Trombe in C	*	*I"Fagotti	*	*I"Corni in G.	*	*I"Corni in C	*	*I"Clarinetti in C	*	*I"Oboe	*	*I"Picolo	*	*I"Flauto	*
*I'Timp.	*	*I'C: Basſi	*	*I'Vc.	*	*I'Viole	*	*I'Violini	*	*I'Violini	*	*I'Tr-ne	*	*I'Tr-ba in C	*	*I'Fag.	*	*I'C. in G	*	*I'C. in C	*	*I'Cl. in C	*	*I'Ob.	*	*I'Picolo	*	*I'Fl.	*
*clefF4	*	*clefF4	*	*clefF4	*	*clefC3	*	*clefG2	*	*clefG2	*	*clefF4	*	*clefG2	*	*clefF4	*	*clefG2	*	*clefG2	*	*clefG2	*	*clefG2	*	*clefG2	*	*clefG2	*
*	*	*ITrd0c0	*	*	*	*	*	*	*	*	*	*	*	*	*	*	*	*ITrd3c5	*	*ITrd0c0	*	*	*	*	*	*ITrd0c0	*	*	*
*k[f#]	*	*k[f#]	*	*k[f#]	*	*k[f#]	*	*k[f#]	*	*k[f#]	*	*k[f#]	*	*k[f#]	*	*k[f#]	*	*k[f#]	*	*k[f#]	*	*k[f#]	*	*k[f#]	*	*k[f#]	*	*k[f#]	*
*M2/4	*	*M2/4	*	*M2/4	*	*M2/4	*	*M2/4	*	*M2/4	*	*M2/4	*	*M2/4	*	*M2/4	*	*M2/4	*	*M2/4	*	*M2/4	*	*M2/4	*	*M2/4	*	*M2/4	*
*stria1	*	*	*	*	*	*	*	*	*	*	*	*	*	*	*	*	*	*	*	*	*	*	*	*	*	*	*	*	*
=1	=1	=1	=1	=1	=1	=1	=1	=1	=1	=1	=1	=1	=1	=1	=1	=1	=1	=1	=1	=1	=1	=1	=1	=1	=1	=1	=1	=1	=1
8.ryy	f	8.ryy	f	8.ryy	f	8.ryyyy	.	8.ryy	.	8.r	.	8.ryy	.	8.ryy	.	8.ryy	.	8.ryy	.	8.ryy	.	8.ryy	.	8.ryy	.	8.ryy	.	8.ryy	.
.	.	.	.	.	.	.	.	.	.	.	f	.	.	.	.	.	.	.	.	.	f	.	f	.	.	.	.	.	f
!LO:SIC:s=16D/	!	!	!	!	!	!	!	!	!	!	!	!	!	!	!	!	!	!	!	!	!	!	!	!	!	!	!	!	!
16Re/yy	.	16E-X\yy|	.	16E-X\yy|	.	16G/yy 16e-Xyyyy	f	16g/yy	.	16e-X/ 16cc	.	16E-X\yy	.	16g/ 16ccyy	.	16E-X\ 16Gyy	.	16g\yy	.	16cc\ 16ee-Xyy	.	16g/ 16ccyy	.	16cc\ 16ggyy	.	16ccc\yy	.	16ccc\yy	.
!LO:SIC:s=8D/L	!	!	!	!	!	!	!	!	!	!	!	!	!	!	!	!	!	!	!	!	!	!	!	!	!	!	!	!	!
8Re/Lyy	.	8E-\Lyy|	.	8E-\Lyy|	.	8G/Lyy 8e-yyyy	.	8g/Lyy	.	8e-/L 8cc	.	8E-\Lyy	.	8g/L 8ccyy	.	8E-\L 8Gyy	.	8g\Lyy	.	8cc\L 8ee-yy	.	8g/L 8ccyy	.	8cc\L 8ggyy	.	8ccc\Lyy	.	8ccc\Lyy	.
16ryy	.	16ryy	.	16ryy	.	16ryyyy	.	16ryy	.	16r	.	16ryy	.	16ryy	.	16ryy	.	16ryy	.	16ryy	.	16ryy	.	16ryy	.	16ryy	.	16ryy	.
!LO:SIC:s=16D/Jk	!	!	!	!	!	!	!	!	!	!	!	!	!	!	!	!	!	!	!	!	!	!	!	!	!	!	!	!	!
16Re/Jyy	.	16D\Jkyy|	.	16D\Jkyy|	.	16A/Jkyy 16dyyyy	.	16c/Jk 16dyy	.	16A/Jk 16f#	.	16D\Jkyy	.	16f#X/Jk 16ddyy	.	16D\Jk 16Ayy	.	16d\Jk 16ayy	.	16dd\Jkyy	.	16f#/Jk 16ayy	.	16cc\Jk 16ff#yy	.	16ff#\Jkyy	.	16ff#\Jkyy	.
=2	=2	=2	=2	=2	=2	=2	=2	=2	=2	=2	=2	=2	=2	=2	=2	=2	=2	=2	=2	=2	=2	=2	=2	=2	=2	=2	=2	=2	=2
*	*	*	*	*	*	*	*	*	*	*	*	*	*	*	*	*	*	*	*	*^	*	*	*	*	*	*	*	*	*
!LO:SIC:s=4D/	!	!	!	!	!	!	!	!	!	!	!	!	!	!	!	!	!	!	!	!	!	!	!	!	!	!	!	!	!	!
4Re/yy	.	4.D;\yy	.	4.D;\yy	.	4.A;/yy 4.dyyyy	.	4.c;/ 4.dyy	.	4.A;/ 4.f#	.	4.D;\yy	.	4.f#X/ 4.ddyy	.	4.D;\ 4.Ayy	.	4.d;\ 4.ayy	.	4.dd;/yy	4.dd\yy	.	4.f#/ 4.ayy	.	4.cc;\ 4.ff#yy	.	4.ff#;\yy	.	4.ff#;\yy	.
4ryy	.	.	.	.	.	.	.	.	.	.	.	.	.	.	.	.	.	.	.	.	.	.	.	.	.	.	.	.	.	.
!	!	!	!	!	!	!	!	!	!	!	!LO:DY:a	!	!	!	!	!	!	!	!	!	!	!	!	!	!	!	!	!	!	!
.	.	8ryy	.	8ryy	.	8ryyyy	.	8ryy	.	[8d/	mf	8ryy	.	8ryy	.	8ryy	.	8ryy	.	8ryy	8ryyyy	.	[8d/yy	.	8ryy	.	8ryy	.	[8dd\yy	.
*	*	*	*	*	*	*	*	*	*	*	*	*	*	*	*	*	*	*	*	*v	*v	*	*	*	*	*	*	*	*	*
=3	=3	=3	=3	=3	=3	=3	=3	=3	=3	=3	=3	=3	=3	=3	=3	=3	=3	=3	=3	=3	=3	=3	=3	=3	=3	=3	=3	=3	=3
2ryy	.	8GG/yy	.	8GG/yy	.	8ryyyy	.	8ryy	.	8d/]	.	2ryy	.	2ryy	.	8GG\ 8Gyy	mf	8ryy	.	8ryy	mf	8d/]yy	.	2ryy	.	2ryy	.	8dd\]yy	.
.	.	8ryy	.	8ryy	.	8G\yy 8dyyyy	.	8B/ 8gyy	.	4g^/	.	.	.	.	.	8ryy	.	8B/ 8gyy	.	8g/ 8ddyy	.	4g/yy	.	.	.	.	.	4gg\yy	.
.	.	8G\yy	.	8G\yy	.	8ryyyy	.	8ryy	.	.	.	.	.	.	.	8GG\ 8Gyy	.	8ryy	.	8ryy	.	.	.	.	.	.	.	.	.
.	.	8ryy	.	8ryy	.	8G\yy 8dyyyy	.	8B/ 8gyy	.	8g/	.	.	.	.	.	8ryy	.	8B/ 8gyy	.	8g/ 8ddyy	.	8g/yy	.	.	.	.	.	8gg\yy	.
=4	=4	=4	=4	=4	=4	=4	=4	=4	=4	=4	=4	=4	=4	=4	=4	=4	=4	=4	=4	=4	=4	=4	=4	=4	=4	=4	=4	=4	=4
*	*	*	*	*	*	*rep	*	*rep	*	*	*	*	*	*	*	*rep	*	*rep	*	*rep	*	*	*	*	*	*	*	*	*
2ryy	.	8G\yy	.	8G\yy	.	8ryyyy	.	8ryy	.	16g'/LL	.	2ryy	.	2ryy	.	8GG\ 8Gyy	.	8ryy	.	8ryy	.	16g'/LLyy	.	2ryy	.	2ryy	.	16gg\LLyy	.
.	.	.	.	.	.	.	.	.	.	16a'/JJ	.	.	.	.	.	.	.	.	.	.	.	16a'/JJyy	.	.	.	.	.	16aa\JJyy	.
.	.	8ryy	.	8ryy	.	8G\yy 8dyyyy	.	8B/ 8gyy	.	4b^/	.	.	.	.	.	8ryy	.	8B/ 8gyy	.	8g/ 8ddyy	.	4b/yy	.	.	.	.	.	4bb^<\yy	.
.	.	8G\yy	.	8G\yy	.	8ryyyy	.	8ryy	.	.	.	.	.	.	.	8GG\ 8Gyy	.	8ryy	.	8ryy	.	.	.	.	.	.	.	.	.
.	.	8ryy	.	8ryy	.	8G\yy 8dyyyy	.	8B/ 8gyy	.	16a'/LL	.	.	.	.	.	8ryy	.	8B/ 8gyy	.	8g/ 8ddyy	.	16a/LLyy	.	.	.	.	.	16aa\LLyy	.
.	.	.	.	.	.	.	.	.	.	16g'/JJ	.	.	.	.	.	.	.	.	.	.	.	16g/JJyy	.	.	.	.	.	16gg\JJyy	.
*	*	*	*	*	*	*Xrep	*	*Xrep	*	*	*	*	*	*	*	*Xrep	*	*Xrep	*	*Xrep	*	*	*	*	*	*	*	*	*
=5	=5	=5	=5	=5	=5	=5	=5	=5	=5	=5	=5	=5	=5	=5	=5	=5	=5	=5	=5	=5	=5	=5	=5	=5	=5	=5	=5	=5	=5
*	*	*	*	*	*	*	*	*	*	*	*	*	*	*	*	*	*	*	*	*^	*	*	*	*	*	*	*	*	*
2ryy	.	8D\yy	.	8D\yy	.	8ryyyy	.	8ryy	.	8f#/	.	2ryy	.	2ryy	.	8DD\ 8Dyy	.	8ryy	.	8ryy	8ryyyy	.	8f#/yy	.	8ryy	.	8ryy	.	8ff#\yy	.
.	.	8ryy	.	8ryy	.	8A\yy 8dyyyy	.	8c/ 8f#yy	.	4dd^<\	.	.	.	.	.	8ryy	.	8d/ 8ayy	.	8dd/yy	8cc\yy	.	8ryy	.	4dd\yy	.	4dd^<\yy	.	4ryy	.
.	.	8D\yy	.	8D\yy	.	8ryyyy	.	8ryy	.	.	.	.	.	.	.	8DD\ 8Dyy	.	8ryy	.	8ryy	8ryy	.	4ryy	.	.	.	.	.	.	.
.	.	8ryy	.	8ryy	.	8Ayy\ 8dyyyy	.	8c/ 8f#yy	.	8dd\	.	.	.	.	.	8ryy	.	8d/ 8ayy	.	8dd/yy	8cc\yy	.	.	.	8dd\yy	.	8dd\yy	.	8ryy	.
!!LO:PB:g=original
=6	=6	=6	=6	=6	=6	=6	=6	=6	=6	=6	=6	=6	=6	=6	=6	=6	=6	=6	=6	=6	=6	=6	=6	=6	=6	=6	=6	=6	=6	=6
*	*	*	*	*	*	*	*	*	*	*	*	*	*	*	*	*	*	*	*	*	*	*	*	*	*^	*	*	*	*	*
2ryy	.	8D\yy	.	16d\LLyy	.	8ryy	.	8ryy	.	16dd'\LL	.	2ryy	.	2ryy	.	8DD/ 8Dyy	.	8ryy	.	8ryy	8ryyyy	.	2ryy	.	16dd/LLyy	2ryy	.	16dd'\LLyy	.	2ryy	.
.	.	.	.	16e\JJyy	.	.	.	.	.	16ee'\JJ	.	.	.	.	.	.	.	.	.	.	.	.	.	.	16ee/JJyy	.	.	16ee'\JJyy	.	.	.
.	.	8ryy	.	8.f#\Lyy	.	8A\ 8dyy	.	8c/ 8f#yy	.	8.ff#\L	.	.	.	.	.	8ryy	.	8d\ 8ayy	.	8dd/yy	8cc\yy	.	.	.	8.ff#/Lyy	.	.	8.ff#\Lyy	.	.	.
.	.	8D\yy	.	.	.	8ryy	.	8ryy	.	.	.	.	.	.	.	8DD/ 8Dyy	.	8ryy	.	8ryy	8ryyyy	.	.	.	.	.	.	.	.	.	.
.	.	.	.	16e\Lyy	.	.	.	.	.	16ee\L	.	.	.	.	.	.	.	.	.	.	.	.	.	.	16ee/Lyy	.	.	16ee\Lyy	.	.	.
.	.	8ryy	.	16c\yy	.	8A\ 8dyy	.	8c/ 8f#yy	.	16cc\	.	.	.	.	.	8ryy	.	8d\ 8ayy	.	8dd/yy	8cc\yy	.	.	.	16dd/yy	.	.	16dd\yy	.	.	.
.	.	.	.	16A\JJyy	.	.	.	.	.	16a\JJ	.	.	.	.	.	.	.	.	.	.	.	.	.	.	16cc/JJyy	.	.	16cc\JJyy	.	.	.
*	*	*	*	*	*	*	*	*	*	*	*	*	*	*	*	*	*	*	*	*v	*v	*	*	*	*	*	*	*	*	*	*
=7	=7	=7	=7	=7	=7	=7	=7	=7	=7	=7	=7	=7	=7	=7	=7	=7	=7	=7	=7	=7	=7	=7	=7	=7	=7	=7	=7	=7	=7	=7
2ryy	.	8GG/yy	.	8G\yy	.	8ryy	.	8ryy	.	8g/	.	2ryy	.	2ryy	.	8GG\ 8Gyy	.	8ryy	.	8ryy	.	8ryy	.	8g/yy	2ryy	.	4g/yy	.	8ryy	.
.	.	8ryy	.	4G^<\yy	.	8G\ 8dyy	.	8B/ 8gyy	.	4g^/	.	.	.	.	.	8ryy	.	8B/ 8gyy	.	8g/ 8ddyy	.	4g^>/yy	.	8ryy	.	.	.	.	4gg^<\yy	.
.	.	8G\yy	.	.	.	8ryy	.	8ryy	.	.	.	.	.	.	.	8GG\ 8Gyy	.	8ryy	.	8ryy	.	.	.	4ryy	.	.	4ryy	.	.	.
.	.	8ryy	.	8G\yy	.	8G\ 8dyy	.	8B/ 8gyy	.	8g/	.	.	.	.	.	8ryy	.	8B/ 8gyy	.	8g/ 8ddyy	.	8g/yy	.	.	.	.	.	.	8gg\yy	.
=8	=8	=8	=8	=8	=8	=8	=8	=8	=8	=8	=8	=8	=8	=8	=8	=8	=8	=8	=8	=8	=8	=8	=8	=8	=8	=8	=8	=8	=8	=8
*	*	*	*	*	*	*rep	*	*rep	*	*	*	*	*	*	*	*rep	*	*rep	*	*rep	*	*	*	*	*	*	*	*	*	*
2ryy	.	8GG/yy	.	16G\LLyy	.	8ryy	.	8ryy	.	16g/LL	.	2ryy	.	2ryy	.	8GG\ 8Gyy	.	8ryy	.	8ryy	.	16g'/LLyy	.	2ryy	2ryy	.	2ryy	.	16gg\LLyy	.
.	.	.	.	16A\JJyy	.	.	.	.	.	16a/JJ	.	.	.	.	.	.	.	.	.	.	.	16a'/JJyy	.	.	.	.	.	.	16aa\JJyy	.
.	.	8ryy	.	4B\yy	.	8G\ 8dyy	.	8B/ 8gyy	.	4b/	.	.	.	.	.	8ryy	.	8B/ 8gyy	.	8g/ 8ddyy	.	4b^>/yy	.	.	.	.	.	.	4bb\yy	.
.	.	8G\yy	.	.	.	8ryy	.	8ryy	.	.	.	.	.	.	.	8GG\ 8Gyy	.	8ryy	.	8ryy	.	.	.	.	.	.	.	.	.	.
.	.	8ryy	.	16A\LLyy	.	8G\ 8dyy	.	8B/ 8gyy	.	16a/LL	.	.	.	.	.	8ryy	.	8B/ 8gyy	.	8g/ 8ddyy	.	16a'/LLyy	.	.	.	.	.	.	16aa\LLyy	.
.	.	.	.	16G\JJyy	.	.	.	.	.	16g/JJ	.	.	.	.	.	.	.	.	.	.	.	16g'/JJyy	.	.	.	.	.	.	16gg\JJyy	.
*	*	*	*	*	*	*Xrep	*	*Xrep	*	*	*	*	*	*	*	*Xrep	*	*Xrep	*	*Xrep	*	*	*	*	*	*	*	*	*	*
=9	=9	=9	=9	=9	=9	=9	=9	=9	=9	=9	=9	=9	=9	=9	=9	=9	=9	=9	=9	=9	=9	=9	=9	=9	=9	=9	=9	=9	=9	=9
*	*	*	*	*	*	*	*	*	*	*	*	*	*	*	*	*	*	*	*	*^	*	*	*	*	*	*	*	*	*	*
2ryy	.	8D\yy	.	8F#\yy	.	8ryy	.	8ryy	.	8f#/	.	2ryy	.	2ryy	.	8DD/ 8Dyy	.	8ryy	.	8ryy	8ryyyy	.	8f#/yy	.	8ryy	2ryy	.	8ryy	.	8ff#\yy	.
.	.	8ryy	.	4d^<\yy	.	8A\ 8dyy	.	8c/ 8f#yy	.	4dd^<\	.	.	.	.	.	8ryy	.	8d/ 8ayy	.	8dd/yy	8cc\yy	.	8ryy	.	4dd/yy	.	.	4dd^<\yy	.	8ryy	.
.	.	8D\yy	.	.	.	8ryy	.	8ryy	.	.	.	.	.	.	.	8DD/ 8Dyy	.	8ryy	.	8ryy	8ryyyy	.	4ryy	.	.	.	.	.	.	4ryy	.
.	.	8ryy	.	8d\yy	.	8A\ 8dyy	.	8c/ 8f#yy	.	8dd\	.	.	.	.	.	8ryy	.	8d/ 8ayy	.	8dd/yy	8cc\yy	.	.	.	8dd/yy	.	.	8dd\yy	.	.	.
=10	=10	=10	=10	=10	=10	=10	=10	=10	=10	=10	=10	=10	=10	=10	=10	=10	=10	=10	=10	=10	=10	=10	=10	=10	=10	=10	=10	=10	=10	=10	=10
2ryy	.	8D\yy	.	16f#\LLyy	.	8ryy	.	8ryy	.	16ff#\LL	.	2ryy	.	2ryy	.	8DD/ 8Dyy	.	8ryy	.	8ryy	8ryyyy	.	2ryy	.	16ff#/LLyy	2ryy	.	16ff#\LLyy	.	2ryy	.
.	.	.	.	16e\yy	.	.	.	.	.	16ee\	.	.	.	.	.	.	.	.	.	.	.	.	.	.	16ee/yy	.	.	16ee\yy	.	.	.
.	.	8ryy	.	16c\yy	.	8A\ 8dyy	.	8c/ 8f#yy	.	16cc\	.	.	.	.	.	8ryy	.	8d/ 8ayy	.	8dd/yy	8cc\yy	.	.	.	16cc/yy	.	.	16cc\yy	.	.	.
.	.	.	.	16A\JJyy	.	.	.	.	.	16a\JJ	.	.	.	.	.	.	.	.	.	.	.	.	.	.	16a/JJyy	.	.	16a\JJyy	.	.	.
.	.	8G\yy	.	8G\yy	.	8G\ 8dyy	.	8ryy	.	8g/	.	.	.	.	.	8GG\ 8Gyy	.	8B/ 8gyy	.	8g/ 8ddyy	4ryyyy	.	.	.	8g/yy	.	.	8g/yy	.	.	.
.	.	8ryy	.	8ryy	.	8ryy	.	8B/ 8gyy	.	8r	.	.	.	.	.	8ryy	.	8ryy	.	8ryy	.	.	.	.	8ryy	.	.	8ryy	.	.	.
*	*	*	*	*	*	*	*	*	*	*	*	*	*	*	*	*	*	*	*	*v	*v	*	*	*	*v	*v	*	*	*	*	*
=11	=11	=11	=11	=11	=11	=11	=11	=11	=11	=11	=11	=11	=11	=11	=11	=11	=11	=11	=11	=11	=11	=11	=11	=11	=11	=11	=11	=11	=11
!LO:SIC:s=8GG\	!	!	!LO:DY:rj	!	!	!	!LO:DY:rj	!	!	!	!LO:DY:rj	!	!	!	!	!	!	!	!	!	!	!	!	!	!	!LO:TX:a:t=Col Vº. Iº.	!	!LO:TX:a:t=Col Vº. Iº.	!
8Re\yy	.	8GG/yy	f	16GG/LLyy	.	16G/LLyy	f	8d/yy	.	8dd\	f	8G\yy	.	8d/yy	.	8G\L 8Byy	.	8ryy	.	8ryy	.	8ryy	.	8ryy	.	8dd\yy	f	8dd\yy	f
.	.	.	.	16D/yy	.	16d/yy	.	.	.	.	.	.	.	.	.	.	.	.	.	.	f	.	f	.	f	.	.	.	.
8ryy	.	8ryy	.	16BB/yy	.	16B/yy	.	4g^/yy	.	4gg^<\	.	8ryy	.	4g^/yy	.	8D\J 8dyy	.	8B/ 8gyy	.	8g/ 8ddyy	.	8g/ 8ddyy	.	8b\ 8ggyy	.	4gg^\yy	.	4gg^\yy	.
.	.	.	.	16D/JJyy	.	16d/JJyy	.	.	.	.	.	.	.	.	.	.	.	.	.	.	.	.	.	.	.	.	.	.	.
*	*	*	*	*rep	*	*rep	*	*	*	*	*	*	*	*	*	*rep	*	*	*	*	*	*	*	*	*	*	*	*	*
!LO:SIC:s=8GG\	!	!	!	!	!	!	!	!	!	!	!	!	!	!	!	!	!	!	!	!	!	!	!	!	!	!	!	!	!
8Re\yy	.	8G\yy	.	16GG/LLyy	.	16G/LLyy	.	.	.	.	.	8G\yy	.	.	.	8G\L 8Byy	.	8ryy	.	8ryy	.	8ryy	.	8ryy	.	.	.	.	.
.	.	.	.	16D/yy	.	16d/yy	.	.	.	.	.	.	.	.	.	.	.	.	.	.	.	.	.	.	.	.	.	.	.
8ryy	.	8ryy	.	16BB/yy	.	16B/yy	.	8g/yy	.	8gg\	.	8ryy	.	8g/yy	.	8D\J 8dyy	.	8B/ 8gyy	.	8g/ 8ddyy	.	8g/ 8ddyy	.	8b\ 8ggyy	.	8gg\yy	.	8gg\yy	.
.	.	.	.	16D/JJyy	.	16d/JJyy	.	.	.	.	.	.	.	.	.	.	.	.	.	.	.	.	.	.	.	.	.	.	.
*	*	*	*	*Xrep	*	*Xrep	*	*	*	*	*	*	*	*	*	*Xrep	*	*	*	*	*	*	*	*	*	*	*	*	*
!!LO:PB:g=original
=12	=12	=12	=12	=12	=12	=12	=12	=12	=12	=12	=12	=12	=12	=12	=12	=12	=12	=12	=12	=12	=12	=12	=12	=12	=12	=12	=12	=12	=12
!LO:SIC:s=8GG\	!	!	!	!	!	!	!LO:DY:rj	!LO:TX:a:t=8va	!	!	!	!	!	!	!	!	!	!	!	!	!	!	!	!	!	!	!	!	!
8Re\yy	.	8GG/yy	.	16GG/LLyy	.	16G/LLyy	f	16g'/LLyyyy	.	16gg'\LL	.	8G\yy	.	16g/LLyy	.	8G\L 8Byy	.	8ryy	.	8ryy	.	8ryy	.	8ryy	.	16gg'\LLyy	.	16gg'\LLyy	.
.	.	.	.	16D/yy	.	16d/yy	.	16a'/JJyyyy	.	16aa'\JJ	.	.	.	16a/JJyy	.	.	.	.	.	.	.	.	.	.	.	16aa'\JJyy	.	16aa'\JJyy	.
8ryy	.	8ryy	.	16BB/yy	.	16B/yy	.	4b'^\yyyy	.	4bb'^\	.	8ryy	.	4b/yy	.	8D\J 8dyy	.	8B/ 8gyy	.	8g/ 8ddyy	.	8g/ 8ddyy	.	8b\ 8ggyy	.	4bb'^\yy	.	4bb'^\yy	.
.	.	.	.	16D/JJyy	.	16d/JJyy	.	.	.	.	.	.	.	.	.	.	.	.	.	.	.	.	.	.	.	.	.	.	.
*	*	*	*	*rep	*	*rep	*	*	*	*	*	*	*	*	*	*rep	*	*	*	*	*	*	*	*	*	*	*	*	*
!LO:SIC:s=8GG\	!	!	!	!	!	!	!	!	!	!	!	!	!	!	!	!	!	!	!	!	!	!	!	!	!	!	!	!	!
8Re\yy	.	8G\yy	.	16GG/LLyy	.	16G/LLyy	.	.	.	.	.	8G\yy	.	.	.	8G\L 8Byy	.	8ryy	.	8ryy	.	8ryy	.	8ryy	.	.	.	.	.
.	.	.	.	16D/yy	.	16d/yy	.	.	.	.	.	.	.	.	.	.	.	.	.	.	.	.	.	.	.	.	.	.	.
8ryy	.	8ryy	.	16BB/yy	.	16B/yy	.	16a'/LLyyyy	.	16aa'\LL	.	8ryy	.	16a/LLyy	.	8D\J 8dyy	.	8B/ 8gyy	.	8g/ 8ddyy	.	8g/ 8ddyy	.	8b\ 8ggyy	.	16aa'\LLyy	.	16aa'\LLyy	.
.	.	.	.	16D/JJyy	.	16d/JJyy	.	16g'/JJyyyy	.	16gg'\JJ	.	.	.	16g/JJyy	.	.	.	.	.	.	.	.	.	.	.	16gg'\JJyy	.	16gg'\JJyy	.
*	*	*	*	*Xrep	*	*Xrep	*	*	*	*	*	*	*	*	*	*Xrep	*	*	*	*	*	*	*	*	*	*	*	*	*
=13	=13	=13	=13	=13	=13	=13	=13	=13	=13	=13	=13	=13	=13	=13	=13	=13	=13	=13	=13	=13	=13	=13	=13	=13	=13	=13	=13	=13	=13
*	*	*	*	*	*	*	*	*	*	*	*	*	*	*^	*	*	*	*	*	*^	*	*	*	*^	*	*	*	*	*
*	*	*	*	*	*	*r	*	*	*	*	*	*	*	*	*	*	*	*	*	*	*	*	*	*	*	*	*	*	*	*	*	*
!LO:SIC:s=8D/	!	!	!	!	!	!	!	!	!	!	!	!	!	!	!	!	!	!	!	!	!	!	!	!	!	!	!	!	!	!	!	!
8Re/yy	.	8D\yy	.	16DD/LLyy	.	16A/LLyy	.	8f#/yyyy	.	8ff#\	.	8D\yy	.	8f#/yy	8f#\yy	.	8A\L 8cyy	.	8ryy	.	8ryy	8ryyyy	.	8ryy	.	8ryy	8ryyyy	.	8ff#\yy	.	8ff#\yy	.
.	.	.	.	16D/yy	.	16d/yy	.	.	.	.	.	.	.	.	.	.	.	.	.	.	.	.	.	.	.	.	.	.	.	.	.	.
8ryy	.	8ryy	.	16AA/yy	.	16c/yy	.	4dd^\yyyy	.	4ddd^\	.	8ryy	.	8dd/yy	8cc\yy	.	8D\J 8dyy	.	8d/ 8ayy	.	8dd/yy	8cc\yy	.	8a\ 8ff#yy	.	4dd/yy	4dd\yy	.	4ddd^\yy	.	4ddd^\yy	.
.	.	.	.	16D/JJyy	.	16d/JJyy	.	.	.	.	.	.	.	.	.	.	.	.	.	.	.	.	.	.	.	.	.	.	.	.	.	.
*	*	*	*	*rep	*	*rep	*	*	*	*	*	*	*	*	*	*	*rep	*	*	*	*	*	*	*	*	*	*	*	*	*	*	*
!LO:SIC:s=8D/	!	!	!	!	!	!	!	!	!	!	!	!	!	!	!	!	!	!	!	!	!	!	!	!	!	!	!	!	!	!	!	!
8Re/yy	.	8D\yy	.	16DD/LLyy	.	16A/LLyy	.	.	.	.	.	8D\yy	.	8ryy	8ryyyy	.	8A\L 8cyy	.	8ryy	.	8ryy	8ryyyy	.	8ryy	.	.	.	.	.	.	.	.
.	.	.	.	16D/yy	.	16d/yy	.	.	.	.	.	.	.	.	.	.	.	.	.	.	.	.	.	.	.	.	.	.	.	.	.	.
8ryy	.	8ryy	.	16AA/yy	.	16c/yy	.	8dd\yyyy	.	8ddd\	.	8ryy	.	8dd/yy	8cc\yy	.	8D\J 8dyy	.	8d/ 8ayy	.	8dd/yy	8cc\yy	.	8a\ 8ff#yy	.	8dd/yy	8dd\yy	.	8ddd\yy	.	8ddd\yy	.
.	.	.	.	16D/JJyy	.	16d/JJyy	.	.	.	.	.	.	.	.	.	.	.	.	.	.	.	.	.	.	.	.	.	.	.	.	.	.
*	*	*	*	*Xrep	*	*Xrep	*	*	*	*	*	*	*	*	*	*	*Xrep	*	*	*	*	*	*	*	*	*	*	*	*	*	*	*
*	*	*	*	*	*	*	*	*	*	*	*	*	*	*	*	*	*	*	*	*	*	*	*	*	*	*v	*v	*	*	*	*	*
=14	=14	=14	=14	=14	=14	=14	=14	=14	=14	=14	=14	=14	=14	=14	=14	=14	=14	=14	=14	=14	=14	=14	=14	=14	=14	=14	=14	=14	=14	=14	=14
*	*	*	*	*rep	*	*rep	*	*	*	*	*	*	*	*	*	*	*	*	*rep	*	*rep	*rep	*	*rep	*	*	*	*	*	*	*
!LO:SIC:s=8D/	!	!	!	!	!	!	!	!	!	!	!	!	!	!	!	!	!	!	!	!	!	!	!	!	!	!	!	!	!	!	!
8Re/yy	.	8D\yy	.	16DD/LLyy	.	16A/LLyy	.	16dd\LLyyyy	.	16ddd\LL	.	8D\yy	.	8ryy	8ryyyy	.	8G\L 8Byy	.	8ryy	.	8ryy	8ryyyy	.	8ryy	.	16dd'\LLyy	.	16ddd\LLyy	.	16ddd\LLyy	.
.	.	.	.	16D/yy	.	16d/yy	.	16ee\JJyyyy	.	16eee\JJ	.	.	.	.	.	.	.	.	.	.	.	.	.	.	.	16ee'\JJyy	.	16eee\JJyy	.	16eee\JJyy	.
8ryy	.	8ryy	.	16AA/yy	.	16c/yy	.	8.ff#\Lyyyy	.	8.fff#\L	.	8ryy	.	8dd/yy	8cc\yy	.	8D\J 8dyy	.	8d/ 8ayy	.	8dd/yy	8cc\yy	.	8a\ 8ff#yy	.	8.ff#\Lyy	.	8.fff#\Lyy	.	8.fff#\Lyy	.
.	.	.	.	16D/JJyy	.	16d/JJyy	.	.	.	.	.	.	.	.	.	.	.	.	.	.	.	.	.	.	.	.	.	.	.	.	.
*	*	*	*	*	*	*	*	*	*	*	*	*	*	*	*	*	*rep	*	*	*	*	*	*	*	*	*	*	*	*	*	*
!LO:SIC:s=8D/	!	!	!	!	!	!	!	!	!	!	!	!	!	!	!	!	!	!	!	!	!	!	!	!	!	!	!	!	!	!	!
8Re/yy	.	8D\yy	.	16DD/LLyy	.	16A/LLyy	.	.	.	.	.	8D\yy	.	8ryy	8ryyyy	.	8G\L 8Byy	.	8ryy	.	8ryy	8ryyyy	.	8ryy	.	.	.	.	.	.	.
.	.	.	.	16D/yy	.	16d/yy	.	16ee\Lyyyy	.	16eee\L	.	.	.	.	.	.	.	.	.	.	.	.	.	.	.	16ee\Lyy	.	16eee\Lyy	.	16eee\Lyy	.
8ryy	.	8ryy	.	16AA/yy	.	16c/yy	.	16cc\yyyy	.	16ccc\	.	8ryy	.	8dd/yy	8cc\yy	.	8D\J 8dyy	.	8d/ 8ayy	.	8dd/yy	8cc\yy	.	8a\ 8ff#yy	.	16dd\yy	.	16ccc\yy	.	16ccc\yy	.
.	.	.	.	16D/JJyy	.	16d/JJyy	.	16a\JJyyyy	.	16aa\JJ	.	.	.	.	.	.	.	.	.	.	.	.	.	.	.	16cc\JJyy	.	16aa\JJyy	.	16aa\JJyy	.
*	*	*	*	*Xrep	*	*Xrep	*	*	*	*	*	*	*	*	*	*	*Xrep	*	*Xrep	*	*Xrep	*Xrep	*	*Xrep	*	*	*	*	*	*	*
*	*	*	*	*	*	*	*	*	*	*	*	*	*	*v	*v	*	*	*	*	*	*v	*v	*	*	*	*	*	*	*	*	*
=15	=15	=15	=15	=15	=15	=15	=15	=15	=15	=15	=15	=15	=15	=15	=15	=15	=15	=15	=15	=15	=15	=15	=15	=15	=15	=15	=15	=15	=15
*	*	*	*	*	*	*	*	*	*	*	*	*	*	*	*	*	*	*	*	*	*	*	*	*^	*	*	*	*	*
!LO:SIC:s=8GG\	!	!	!	!	!	!	!	!	!	!	!	!	!	!	!	!	!	!	!	!	!	!	!	!	!	!	!	!	!	!
8Re\yy	.	8GG/yy	.	16GG/LLyy	.	16G/LLyy	.	8g/yyyy	.	8gg\	.	8G\yy	.	8g/ 8ddyy	.	8G\L 8Byy	.	8ryy	.	8ryy	.	8ryy	.	8g/yy	8g\yy	.	8gg\yy	.	8gg\yy	.
.	.	.	.	16D/yy	.	16d/yy	.	.	.	.	.	.	.	.	.	.	.	.	.	.	.	.	.	.	.	.	.	.	.	.
8ryy	.	8ryy	.	16BB/yy	.	16B/yy	.	4g^/yyyy	.	4gg^\	.	8ryy	.	4g^/yy	.	8D\J 8dyy	.	8B/ 8gyy	.	8g/ 8ddyy	.	8g/ 8ddyy	.	4.ryyyy	8gg\ 8b\yy	.	4gg^\yy	.	4gg^\yy	.
.	.	.	.	16D/JJyy	.	16d/JJyy	.	.	.	.	.	.	.	.	.	.	.	.	.	.	.	.	.	.	.	.	.	.	.	.
*	*	*	*	*rep	*	*rep	*	*	*	*	*	*	*	*	*	*rep	*	*	*	*	*	*	*	*	*	*	*	*	*	*
!LO:SIC:s=8GG\	!	!	!	!	!	!	!	!	!	!	!	!	!	!	!	!	!	!	!	!	!	!	!	!	!	!	!	!	!	!
8Re\yy	.	8G\yy	.	16GG/LLyy	.	16G/LLyy	.	.	.	.	.	8G\yy	.	.	.	8G\L 8Byy	.	8ryy	.	8ryy	.	8ryy	.	.	8r 8ryyyy	.	.	.	.	.
.	.	.	.	16D/yy	.	16d/yy	.	.	.	.	.	.	.	.	.	.	.	.	.	.	.	.	.	.	.	.	.	.	.	.
8ryy	.	8ryy	.	16BB/yy	.	16B/yy	.	8g/yyyy	.	8gg\	.	8ryy	.	8g/yy	.	8D\J 8dyy	.	8B/ 8gyy	.	8g/ 8ddyy	.	8g/ 8ddyy	.	.	8gg\ 8b\yy	.	8gg\yy	.	8gg\yy	.
.	.	.	.	16D/JJyy	.	16d/JJyy	.	.	.	.	.	.	.	.	.	.	.	.	.	.	.	.	.	.	.	.	.	.	.	.
*	*	*	*	*Xrep	*	*Xrep	*	*	*	*	*	*	*	*	*	*Xrep	*	*	*	*	*	*	*	*	*	*	*	*	*	*
*	*	*	*	*	*	*	*	*	*	*	*	*	*	*	*	*	*	*	*	*	*	*	*	*v	*v	*	*	*	*	*
=16	=16	=16	=16	=16	=16	=16	=16	=16	=16	=16	=16	=16	=16	=16	=16	=16	=16	=16	=16	=16	=16	=16	=16	=16	=16	=16	=16	=16	=16
*	*	*	*	*rep	*	*rep	*	*	*	*	*	*	*	*	*	*rep	*	*rep	*	*rep	*	*	*	*	*	*	*	*	*
!LO:SIC:s=8GG\	!	!	!	!	!	!	!	!	!	!	!	!	!	!	!	!	!	!	!	!	!	!	!	!	!	!	!	!	!
8Re\yy	.	8GG/yy	.	16GG/LLyy	.	16G/LLyy	.	16g/LLyyyy	.	16gg\LL	.	8G\yy	.	16g/LLyy	.	8G\L 8Byy	.	8ryy	.	8ryy	.	8ryy	.	8ryy	.	16gg\LLyy	.	16gg\LLyy	.
.	.	.	.	16D/yy	.	16d/yy	.	16a/JJyyyy	.	16aa\JJ	.	.	.	16a/JJyy	.	.	.	.	.	.	.	.	.	.	.	16aa\JJyy	.	16aa\JJyy	.
8ryy	.	8ryy	.	16BB/yy	.	16B/yy	.	4b\yyyy	.	4bb\	.	8ryy	.	4b\yy	.	8D\J 8dyy	.	8B/ 8gyy	.	8g/ 8ddyy	.	8g/ 8ddyy	.	8b\ 8ggyy	.	4bb\yy	.	4bb\yy	.
.	.	.	.	16D/JJyy	.	16d/JJyy	.	.	.	.	.	.	.	.	.	.	.	.	.	.	.	.	.	.	.	.	.	.	.
!LO:SIC:s=8GG\	!	!	!	!	!	!	!	!	!	!	!	!	!	!	!	!	!	!	!	!	!	!	!	!	!	!	!	!	!
8Re\yy	.	8G\yy	.	16GG/LLyy	.	16G/LLyy	.	.	.	.	.	8G\yy	.	.	.	8G\L 8Byy	.	8ryy	.	8ryy	.	8ryy	.	8ryy	.	.	.	.	.
.	.	.	.	16D/yy	.	16d/yy	.	.	.	.	.	.	.	.	.	.	.	.	.	.	.	.	.	.	.	.	.	.	.
8ryy	.	8ryy	.	16BB/yy	.	16B/yy	.	16a/LLyyyy	.	16aa\LL	.	8ryy	.	16a/LLyy	.	8D\J 8dyy	.	8B/ 8gyy	.	8g/ 8ddyy	.	8g/ 8ddyy	.	8b\ 8ggyy	.	16aa\LLyy	.	16aa\LLyy	.
.	.	.	.	16D/JJyy	.	16d/JJyy	.	16g/JJyyyy	.	16gg\JJ	.	.	.	16g/JJyy	.	.	.	.	.	.	.	.	.	.	.	16gg\JJyy	.	16gg\JJyy	.
*	*	*	*	*Xrep	*	*Xrep	*	*	*	*	*	*	*	*	*	*Xrep	*	*Xrep	*	*Xrep	*	*	*	*	*	*	*	*	*
=17	=17	=17	=17	=17	=17	=17	=17	=17	=17	=17	=17	=17	=17	=17	=17	=17	=17	=17	=17	=17	=17	=17	=17	=17	=17	=17	=17	=17	=17
*	*	*	*	*	*	*	*	*	*	*	*	*	*	*^	*	*	*	*	*	*^	*	*	*	*^	*	*	*	*	*
!LO:SIC:s=8D/	!	!	!	!	!	!	!	!	!	!	!	!	!	!	!	!	!	!	!	!	!	!	!	!	!	!	!	!	!	!	!	!
8Re/yy	.	8D\yy	.	16DD/LLyy	.	16A/LLyy	.	8f#/yyyy	.	8ff#\	.	8D\yy	.	8f#/yy	8f#\yy	.	8A\L 8cyy	.	8ryy	.	8ryy	8ryyyy	.	8ryy	.	8ryy	8ryyyy	.	8ff#\yy	.	8ff#\yy	.
.	.	.	.	16D/yy	.	16d/yy	.	.	.	.	.	.	.	.	.	.	.	.	.	.	.	.	.	.	.	.	.	.	.	.	.	.
8ryy	.	8ryy	.	16AA/yy	.	16c/yy	.	4dd^\yyyy	.	4ddd^\	.	8ryy	.	8dd/yy	8cc\yy	.	8D\J 8dyy	.	8d/ 8ayy	.	8dd/yy	8cc\yy	.	8a\ 8ff#yy	.	4dd/yy	4dd^<\yy	.	4ddd^\yy	.	4ddd^\yy	.
.	.	.	.	16D/JJyy	.	16d/JJyy	.	.	.	.	.	.	.	.	.	.	.	.	.	.	.	.	.	.	.	.	.	.	.	.	.	.
*	*	*	*	*rep	*	*rep	*	*	*	*	*	*	*	*	*	*	*rep	*	*	*	*	*	*	*	*	*	*	*	*	*	*	*
!LO:SIC:s=8D/	!	!	!	!	!	!	!	!	!	!	!	!	!	!	!	!	!	!	!	!	!	!	!	!	!	!	!	!	!	!	!	!
8Re/yy	.	8D\yy	.	16DD/LLyy	.	16A/LLyy	.	.	.	.	.	8D\yy	.	8ryy	8ryyyy	.	8A\L 8cyy	.	8ryy	.	8ryy	8ryyyy	.	8ryy	.	.	.	.	.	.	.	.
.	.	.	.	16D/yy	.	16d/yy	.	.	.	.	.	.	.	.	.	.	.	.	.	.	.	.	.	.	.	.	.	.	.	.	.	.
8ryy	.	8ryy	.	16AA/yy	.	16c/yy	.	8dd\yyyy	.	8ddd\	.	8ryy	.	8dd/yy	8cc\yy	.	8D\J 8dyy	.	8d/ 8ayy	.	8dd/yy	8cc\yy	.	8a\ 8ff#yy	.	8dd/yy	8dd\yy	.	8ddd\yy	.	8ddd\yy	.
.	.	.	.	16D/JJyy	.	16d/JJyy	.	.	.	.	.	.	.	.	.	.	.	.	.	.	.	.	.	.	.	.	.	.	.	.	.	.
*	*	*	*	*Xrep	*	*Xrep	*	*	*	*	*	*	*	*	*	*	*Xrep	*	*	*	*	*	*	*	*	*	*	*	*	*	*	*
*	*	*	*	*	*	*	*	*	*	*	*	*	*	*v	*v	*	*	*	*	*	*	*	*	*	*	*	*	*	*	*	*	*
!!LO:PB:g=original
=18	=18	=18	=18	=18	=18	=18	=18	=18	=18	=18	=18	=18	=18	=18	=18	=18	=18	=18	=18	=18	=18	=18	=18	=18	=18	=18	=18	=18	=18	=18	=18
2ryy	.	8D\yy	.	16f#\LLyy	.	8ryy	.	8ryy	.	16fff#\LL	.	2ryy	.	2ryy	.	8DD/ 8Dyy	.	8ryy	.	8ryy	8ryyyy	.	2ryy	.	16ff#/LLyy	2ryy	.	16ff#\LLyy	.	2ryy	.
.	.	.	.	16e\yy	.	.	.	.	.	16eee\	.	.	.	.	.	.	.	.	.	.	.	.	.	.	16ee/yy	.	.	16ee\yy	.	.	.
.	.	8ryy	.	16c\yy	.	8A\ 8dyy	.	8c/ 8f#yy	.	16ccc\	.	.	.	.	.	8ryy	.	8d/ 8ayy	.	8dd/yy	8cc\yy	.	.	.	16cc/yy	.	.	16cc\yy	.	.	.
.	.	.	.	16A\JJyy	.	.	.	.	.	16aa\JJ	.	.	.	.	.	.	.	.	.	.	.	.	.	.	16a/JJyy	.	.	16a\JJyy	.	.	.
.	.	8G\yy	.	8G\yy	.	8ryy	.	8ryy	.	8gg\	.	.	.	.	.	8GG\ 8Gyy	.	8B/ 8gyy	.	8g/ 8ddyy	4ryyyy	.	.	.	8g/yy	.	.	8g/yy	.	.	.
.	.	8ryy	.	8ryy	.	8G\ 8dyy	.	8B/ 8gyy	.	8r	.	.	.	.	.	8ryy	.	8ryy	.	8ryy	.	.	.	.	8ryy	.	.	8ryy	.	.	.
*	*	*	*	*	*	*	*	*	*	*	*	*	*	*	*	*	*	*	*	*	*	*	*	*	*v	*v	*	*	*	*	*
=19!|:	=19!|:	=19!|:	=19!|:	=19!|:	=19!|:	=19!|:	=19!|:	=19!|:	=19!|:	=19!|:	=19!|:	=19!|:	=19!|:	=19!|:	=19!|:	=19!|:	=19!|:	=19!|:	=19!|:	=19!|:	=19!|:	=19!|:	=19!|:	=19!|:	=19!|:	=19!|:	=19!|:	=19!|:	=19!|:	=19!|:
*	*	*	*	*	*	*	*	*	*	*	*	*	*	*	*	*	*	*^	*	*	*	*	*	*	*	*	*	*	*	*
!	!	!	!LO:DY:rj	!LO:TX:a:i:t=ponticello	!	!	!	!	!	!	!	!	!	!	!	!	!LO:DY:rj	!	!	!	!	!	!LO:DY:rj	!	!	!	!	!	!	!	!
2ryyyy	.	8E\yy	p	16E\LLyy|	.	8ryy	.	8ryy	p	4r	.	2ryy	.	2ryy	.	(4G\ 4Byy	p	2B/ 2byy	2ryy	.	[<2e/ [2eeyy	2ryy	p	2ryy	.	8b\L>yy|	.	8b\Lyy|	.	8bb\Lyy|	.
.	.	.	.	(16B\yy	.	.	.	.	.	.	.	.	.	.	.	.	.	.	.	.	.	.	.	.	.	.	.	.	.	.	.
.	.	8ryy	.	16A\yy	.	8e\yy	.	8B/ 8gyy	.	.	.	.	.	.	.	.	.	.	.	.	.	.	.	.	.	16ryy	.	16ryy	.	16ryy	.
.	.	.	.	16G\JJ)yy	.	.	.	.	.	.	.	.	.	.	.	.	.	.	.	.	.	.	.	.	.	(>16ee\Jkyy	.	(16ee\Jkyy	.	(16eee\Jkyy	.
.	.	8E\yy	.	16E\LLyy|	.	8ryy	.	8ryy	.	8.r	.	.	.	.	.	4A\) 4cyy	.	.	.	.	.	.	.	.	.	8cc/L)yy	.	8cc\)yy	.	8ccc\)yy	.
.	.	.	.	(16c\yy	.	.	.	.	.	.	.	.	.	.	.	.	.	.	.	.	.	.	.	.	.	.	.	.	.	.	.
.	.	8ryy	.	16B\yy	.	8e\yy	.	8c/ 8ayy	.	.	.	.	.	.	.	.	.	.	.	.	.	.	.	.	.	16ryy	.	16ryy	.	16ryy	.
.	.	.	.	16A\JJ)yy	.	.	.	.	.	(16ee\	.	.	.	.	.	.	.	.	.	.	.	.	.	.	.	(16eeJ/yy	.	(16ee\yy|	.	(16eee\yy|	.
*	*	*	*	*	*	*	*	*	*	*	*	*	*	*	*	*	*	*v	*v	*	*	*	*	*	*	*	*	*	*	*	*
=20	=20	=20	=20	=20	=20	=20	=20	=20	=20	=20	=20	=20	=20	=20	=20	=20	=20	=20	=20	=20	=20	=20	=20	=20	=20	=20	=20	=20	=20	=20
*	*	*rep	*	*rep	*	*rep	*	*	*	*	*	*	*	*	*	*	*	*	*	*	*	*	*	*	*	*	*	*	*rep	*
!	!	!	!	!	!	!	!	!	!	!	!	!	!	!	!	!	!	!	!	!	!	!	!	!	!LO:TX:a:t=I°. col1°.	!	!	!	!	!
2ryyyy	.	8E\yy	.	16E\LLyy|	.	8ryy	.	8ryy	.	8b\)	.	2ryy	.	2ryy	.	4G\ 4Byy	.	2ryy	.	2e/_< 2ee/_yy	2ryy	.	2ryy	.	8b\L)yyyy	.	8b\)yy	.	8bb\)yy|	.
.	.	.	.	(16B\yy	.	.	.	.	.	.	.	.	.	.	.	.	.	.	.	.	.	.	.	.	.	.	.	.	.	.
.	.	8ryy	.	16A\yy	.	8e\yy	.	8B/ 8gyy	.	8r	.	.	.	.	.	.	.	.	.	.	.	.	.	.	16ryyyy	.	16ryy	.	16ryy	.
.	.	.	.	16G\JJ)yy	.	.	.	.	.	.	.	.	.	.	.	.	.	.	.	.	.	.	.	.	(16eeJ\yyyy	.	(16ee\yy	.	(16eee\yy	.
.	.	8E\yy	.	16E\LLyy|	.	8ryy	.	8ryy	.	8.r	.	.	.	.	.	4A\ 4cyy	.	.	.	.	.	.	.	.	8cc\L)yyyy	.	8cc\L)yy	.	8ccc\L)yy	.
.	.	.	.	(16c\yy	.	.	.	.	.	.	.	.	.	.	.	.	.	.	.	.	.	.	.	.	.	.	.	.	.	.
.	.	8ryy	.	16B\yy	.	8e\yy	.	8c/ 8ayy	.	.	.	.	.	.	.	.	.	.	.	.	.	.	.	.	16ryyyy	.	16ryy	.	16ryy	.
.	.	.	.	16A\JJ)yy	.	.	.	.	.	(16ee\	.	.	.	.	.	.	.	.	.	.	.	.	.	.	16ee\Jkyyyy	.	16ee\Jkyy|	.	16eee\Jkyy|	.
*	*	*Xrep	*	*Xrep	*	*Xrep	*	*	*	*	*	*	*	*	*	*	*	*	*	*	*	*	*	*	*	*	*	*	*Xrep	*
=21	=21	=21	=21	=21	=21	=21	=21	=21	=21	=21	=21	=21	=21	=21	=21	=21	=21	=21	=21	=21	=21	=21	=21	=21	=21	=21	=21	=21	=21	=21
*	*	*rep	*	*	*	*rep	*	*	*	*	*	*	*	*	*	*2\right	*	*	*	*	*	*	*	*	*	*	*	*	*	*
2ryyyy	.	8E\yy	.	(16E\LLyy	.	8ryy	.	8ryy	.	8b\L)	.	2ryy	.	8ryy	.	(2G\ (2Byy	.	2ryy	.	2e/] 2ee]yy	2ryy	.	2ryy	.	8b'\Lyyyy	.	8b'\Lyy	.	8bb'\Lyy	.
.	.	.	.	16B\)yy	.	.	.	.	.	.	.	.	.	.	.	.	.	.	.	.	.	.	.	.	.	.	.	.	.	.
.	.	8ryy	.	16B'\yy	.	8e\yy	.	8B/ 8gyy	.	8ee'\	.	.	.	8e'>/Lyy	.	.	.	.	.	.	.	.	.	.	8ee'\yyyy	.	8ee'\yy	.	8eee'\yy	.
.	.	.	.	16B'\JJyy	.	.	.	.	.	.	.	.	.	.	.	.	.	.	.	.	.	.	.	.	.	.	.	.	.	.
*	*	*	*	*rep	*	*	*	*	*	*	*	*	*	*	*	*	*	*	*	*	*	*	*	*	*	*	*	*	*	*
.	.	8E\yy	.	(16E\LLyy	.	8ryy	.	8ryy	.	8ff#'\	.	.	.	8f#'>/yy	.	.	.	.	.	.	.	.	.	.	8ff#'\yyyy	.	8ff#'\yy	.	8fff#'\yy	.
.	.	.	.	16B\)yy	.	.	.	.	.	.	.	.	.	.	.	.	.	.	.	.	.	.	.	.	.	.	.	.	.	.
.	.	8ryy	.	16B'\yy	.	8e\yy	.	8B/ 8gyy	.	8gg'\J	.	.	.	8g'>/Jyy	.	.	.	.	.	.	.	.	.	.	8gg'\Jyyyy	.	8gg'\Jyy	.	8ggg'\Jyy	.
.	.	.	.	16B'\JJyy	.	.	.	.	.	.	.	.	.	.	.	.	.	.	.	.	.	.	.	.	.	.	.	.	.	.
*	*	*Xrep	*	*Xrep	*	*Xrep	*	*	*	*	*	*	*	*	*	*	*	*	*	*	*	*	*	*	*	*	*	*	*	*
=22	=22	=22	=22	=22	=22	=22	=22	=22	=22	=22	=22	=22	=22	=22	=22	=22	=22	=22	=22	=22	=22	=22	=22	=22	=22	=22	=22	=22	=22	=22
*	*	*	*	*	*	*	*	*	*	*	*	*	*	*^	*	*	*	*	*	*	*	*	*	*	*	*	*	*	*	*
!	!	!LO:TX:t=P:problem:mixedbeam	!	!	!	!	!	!	!	!	!	!	!	!	!	!	!	!	!	!	!	!	!	!	!	!	!	!	!	!	!
2ryyyy	.	8BB/Lyy	.	16BB\LLyy	.	8ryy	.	8ryy	.	8ff#\L	.	8ryy	.	8f#X/Lyy	8ryy	.	8F#\L) 8d#X)yy	.	8ryy	.	8ryy	8ryyyy	.	8ryy	.	8ryy	.	8ff#\Lyy	.	8aaa\Lyy	.
.	.	.	.	16B\yy	.	.	.	.	.	.	.	.	.	.	.	.	.	.	.	.	.	.	.	.	.	.	.	.	.	.	.
.	.	.	.	.	.	.	.	.	f	(8qaa#X/	f	.	.	.	.	.	.	.	.	.	.	.	f	.	f	.	f	8qqaa#X/yy	.	.	.
.	.	8B\Jyy	f	16B\yy	.	8d#X\yy	.	8B/ 8f#yy	.	8bb\J)	.	8BB/yy	.	8f#/J 8B/yy	4.ryyyy	f	8F#'\J 8d#yy	f	8B/ 8f#yy	.	8ff#X/yy	8b\yy	.	8dd#X\ 8ff#yy	.	8b\yy	.	8bb\Jyy	f	8fff#X\Jyy	.
.	.	.	.	16B\JJyy	.	.	.	.	.	.	.	.	.	.	.	.	.	.	.	.	.	.	.	.	.	.	.	.	.	.	.
.	.	4BB/yy	.	4BB/yy	.	4d#\yy	.	4B/ 4f#yy	.	4b\	.	4BB/yy	.	4f#/ 4B/yy	.	.	4F#'\ 4d#yy	.	4B/ 4f#yy	.	4ff#/yy	4b\yy	.	4dd#\ 4ff#yy	.	4b\yy	.	4b\yy	.	4fff#\yy	.
*	*	*	*	*	*	*	*	*	*	*	*	*	*	*v	*v	*	*	*	*	*	*	*	*	*	*	*	*	*	*	*	*
=23	=23	=23	=23	=23	=23	=23	=23	=23	=23	=23	=23	=23	=23	=23	=23	=23	=23	=23	=23	=23	=23	=23	=23	=23	=23	=23	=23	=23	=23	=23
2ryyyy	.	8E\yy	.	16E\LLyy|	.	8ryy	.	8ryy	.	4r	.	2ryy	.	2ryy	.	(4G\ 4Byy	.	2ryy	.	[<2e/ [2eeyy	2ryy	.	2ryy	.	8b'/Lyy	.	8b'\Lyy	.	8bb'\Lyy	.
.	.	.	.	(16B\yy	.	.	.	.	.	.	.	.	.	.	.	.	.	.	.	.	.	.	.	.	.	.	.	.	.	.
.	.	8ryy	.	16A\yy	.	8e\yy	.	8B/ 8gyy	.	.	.	.	.	.	.	.	.	.	.	.	.	.	.	.	(16dd#X/Lyy	.	(16dd#X\Lyy	.	(16ddd#X\Lyy	.
.	.	.	.	16G\JJ)yy	.	.	.	.	.	.	.	.	.	.	.	.	.	.	.	.	.	.	.	.	16ee/JJ)yy	.	16ee\JJ)yy	.	16eee\JJ)yy	.
.	.	8E\yy	.	16E\LLyy|	.	8ryy	.	8ryy	.	8.r	.	.	.	.	.	4A\) 4cyy	.	.	.	.	.	.	.	.	8cc'/Lyy	.	8cc'\Lyy	.	8ccc'\Lyy	.
.	.	.	.	(16c\yy	.	.	.	.	.	.	.	.	.	.	.	.	.	.	.	.	.	.	.	.	.	.	.	.	.	.
.	.	8ryy	.	16B\yy	.	8e\yy	.	8c/ 8ayy	.	.	.	.	.	.	.	.	.	.	.	.	.	.	.	.	(16dd#/Lyy	.	(16dd#\Lyy	.	(16ddd#\Lyy	.
.	.	.	.	16A\JJ)yy	.	.	.	.	.	(16ee\	.	.	.	.	.	.	.	.	.	.	.	.	.	.	16ee/JJ)yy	.	16ee\JJ)yy	.	16eee\JJ)yy	.
*	*	*	*	*	*	*	*	*	*	*	*	*	*	*	*	*	*	*	*	*v	*v	*	*	*	*	*	*	*	*	*
!!LO:PB:g=original
=24	=24	=24	=24	=24	=24	=24	=24	=24	=24	=24	=24	=24	=24	=24	=24	=24	=24	=24	=24	=24	=24	=24	=24	=24	=24	=24	=24	=24	=24
2ryy	.	8E\yy	.	16E\LLyy|	.	8ryy	.	8ryy	.	8b\)	.	2ryy	.	2ryy	.	(4G\ 4Byy	.	2ryy	.	2e/_ 2ee_yy	.	2ryy	.	8b'\Lyyyy	.	8b'\Lyy	.	8bb'\Lyyyy	.
.	.	.	.	(16B\yy	.	.	.	.	.	.	.	.	.	.	.	.	.	.	.	.	.	.	.	.	.	.	.	.	.
.	.	8ryy	.	16A\yy	.	8e\yy	.	8B/ 8gyy	.	8r	.	.	.	.	.	.	.	.	.	.	.	.	.	(16dd#X\Lyyyy	.	(16dd#X\Lyy	.	(16ddd#X\Lyyyy	.
.	.	.	.	16G\JJ)yy	.	.	.	.	.	.	.	.	.	.	.	.	.	.	.	.	.	.	.	16ee\JJ)yyyy	.	16ee\JJ)yy	.	16eee\JJ)yyyy	.
.	.	8E\yy	.	16E\LLyy|	.	8ryy	.	8ryy	.	8r	.	.	.	.	.	4A\) 4cyy	.	.	.	.	.	.	.	8cc'\Lyyyy	.	8cc'\Lyy	.	8ccc'\Lyyyy	.
.	.	.	.	(16c\yy	.	.	.	.	.	.	.	.	.	.	.	.	.	.	.	.	.	.	.	.	.	.	.	.	.
.	.	8ryy	.	16B\yy	.	8e\yy	.	8c/ 8ayy	.	(16dd#X\LL	.	.	.	.	.	.	.	.	.	.	.	.	.	(16dd#\Lyyyy	.	(16dd#\Lyy	.	(16ddd#\Lyyyy	.
.	.	.	.	16A\JJ)yy	.	.	.	.	.	16ee\JJ)	.	.	.	.	.	.	.	.	.	.	.	.	.	16ee\JJ)yyyy	.	16ee\JJ)yy	.	16eee\JJ)yyyy	.
=25	=25	=25	=25	=25	=25	=25	=25	=25	=25	=25	=25	=25	=25	=25	=25	=25	=25	=25	=25	=25	=25	=25	=25	=25	=25	=25	=25	=25	=25
2ryy	.	8E\yy	.	16E\LLyy	.	8ryy	.	8ryy	.	8b'\L	.	2ryy	.	8B'/Lyy	.	(4G\ 4Byy	.	2ryy	.	4e/] 4ee]yy	.	2ryy	.	8b'\Lyyyy	.	8b'\Lyy	.	8bb'\Lyyyy	.
.	.	.	.	16B\yy	.	.	.	.	.	.	.	.	.	.	.	.	.	.	.	.	.	.	.	.	.	.	.	.	.
.	.	8ryy	.	16B\yy	.	8e\yy	.	8B/ 8gyy	.	8ee'\J	.	.	.	8e'/Jyy	.	.	.	.	.	.	.	.	.	8ee'\Jyyyy	.	8ee'\Jyy	.	8eee'\Jyyyy	.
.	.	.	.	16B\JJyy	.	.	.	.	.	.	.	.	.	.	.	.	.	.	.	.	.	.	.	.	.	.	.	.	.
.	.	8BB/yy	.	16E\LLyy	.	8ryy	.	8ryy	.	8ff#'\L	.	.	.	8f#X'/Lyy	.	4BB\ 4Ayy	.	.	.	4f#X/ 4dd#Xyy	.	.	.	8ff#'\Lyyyy	.	8ff#'\Lyy	.	8fff#'\Lyyyy	.
.	.	.	.	16B\yy	.	.	.	.	.	.	.	.	.	.	.	.	.	.	.	.	.	.	.	.	.	.	.	.	.
.	.	8ryy	.	16B\yy	.	8d#X\ 8f#yy	.	8B/ 8ayy	.	(16gg\L	.	.	.	(16g/Lyy	.	.	.	.	.	.	.	.	.	(16gg\Lyyyy	.	(16gg\Lyy	.	(16ggg\Lyyyy	.
.	.	.	.	16B\JJyy	.	.	.	.	.	16ff#\JJ)	.	.	.	16f#/JJ)yy	.	.	.	.	.	.	.	.	.	16ff#\JJ)yyyy	.	16ff#\JJ)yy	.	16fff#\JJ)yyyy	.
=26	=26	=26	=26	=26	=26	=26	=26	=26	=26	=26	=26	=26	=26	=26	=26	=26	=26	=26	=26	=26	=26	=26	=26	=26	=26	=26	=26	=26	=26
*	*	*	*	*	*	*	*	*	*	*	*	*	*	*	*	*	*	*	*	*	*	*	*	*^	*	*	*	*	*
8ryy	.	8E\yy	.	16E\LLyy	.	8ryy	.	8ryy	.	8ee\	.	8ryy	.	8ryy	.	8E\) 8Gyy	.	8ryy	.	8e/ 8eeyy	.	8ryy	.	8ee/Lyy	8ryy	.	8ee\Lyy	.	8eee\Lyyyy	.
.	.	.	.	16e\yy	.	.	.	.	.	.	.	.	.	.	.	.	.	.	.	.	.	.	.	.	.	.	.	.	.	.
!	!	!LO:TX:t=P:problem:mixedbeam	!	!	!	!	!	!	!	!	!	!	!	!	!	!	!	!	!	!	!	!	!	!	!	!	!	!	!	!
.	.	.	.	.	.	.	.	.	f	.	f	.	.	.	.	.	f	.	f	.	f	.	f	8qdd#X/yy	.	.	8qqddd#X/yy	.	8qqdddd#X/yyyy	.
!LO:SIC:s=8GG/	!	!	!	!	!	!	!	!	!	!	!	!	!	!	!	!	!	!	!	!	!	!	!	!	!	!	!	!	!	!
8Re/yy	f	8e\yy	f	16B\yy	.	8e\yy	.	8BL/ 8gyy	.	8eee'L\	.	8E\yy	.	8e/L 8gyy	.	8E\L 8Gyy	.	8B/ 8gyy	.	8e/ 8eeyy	.	8gL\ 8eeyy	.	8ee;</Jyy	8gL\yy	.	8eee\Jyy	.	8eeee\Jyyyy	.
.	.	.	.	16G\JJyy	.	.	.	.	.	.	.	.	.	.	.	.	.	.	.	.	.	.	.	.	.	.	.	.	.	.
!LO:SIC:s=8GG/	!	!	!	!	!	!	!	!	!	!	!	!	!	!	!	!	!	!	!	!	!	!	!	!	!	!	!	!	!	!
8Re/yy	.	8E\yy	.	8E\yy	.	8e\yy	.	8BJ/ 8gyy	.	8ee'J\	.	8E\yy	.	8e/J 8gyy	.	8E\J 8Gyy	.	8B/ 8gyy	.	8e/ 8eeyy	.	8gJ\ 8eeyy	.	8e/yy	8gJ\yy	.	4ee\yy	.	4eee\yyyy	.
8ryy	.	8ryy	.	8ryy	.	8ryy	.	8ryy	.	8r	.	8ryy	.	8ryy	.	8ryy	.	8ryy	.	8ryy	.	8ryy	.	8ryy	8ryyyy	.	.	.	.	.
*	*	*	*	*	*	*	*	*	*	*	*	*	*	*	*	*	*	*	*	*	*	*	*	*v	*v	*	*	*	*	*
=27:|!	=27:|!	=27:|!	=27:|!	=27:|!	=27:|!	=27:|!	=27:|!	=27:|!	=27:|!	=27:|!	=27:|!	=27:|!	=27:|!	=27:|!	=27:|!	=27:|!	=27:|!	=27:|!	=27:|!	=27:|!	=27:|!	=27:|!	=27:|!	=27:|!	=27:|!	=27:|!	=27:|!	=27:|!	=27:|!
!	!	!	!	!	!	!	!	!	!	!	!LO:DY:rj	!	!	!	!	!	!	!	!	!	!	!	!	!	!	!	!	!	!
2ryy	.	8GG/yy	.	8GG/yy	.	8ryy	.	8ryy	mf	8d/	mf	2ryy	.	2ryy	.	8GG\ 8Gyy	mf	8ryy	.	8ryy	mf	8d/yy	.	2ryy	.	2ryy	.	8dd\yy	.
.	.	8ryy	.	8ryy	.	8G\ 8dyy	.	8B/ 8gyy	.	4g^/	.	.	.	.	.	8ryy	.	8B/ 8gyy	.	8g/ 8ddyy	.	4g/yy	.	.	.	.	.	4gg\yy	.
.	.	8G\yy	.	8G\yy	.	8ryy	.	8ryy	.	.	.	.	.	.	.	8GG\ 8Gyy	.	8ryy	.	8ryy	.	.	.	.	.	.	.	.	.
.	.	8ryy	.	8ryy	.	8G\ 8dyy	.	8B/ 8gyy	.	8g/	.	.	.	.	.	8ryy	.	8B/ 8gyy	.	8g/ 8ddyy	.	8g/yy	.	.	.	.	.	8gg\yy	.
=28	=28	=28	=28	=28	=28	=28	=28	=28	=28	=28	=28	=28	=28	=28	=28	=28	=28	=28	=28	=28	=28	=28	=28	=28	=28	=28	=28	=28	=28
*	*	*	*	*	*	*rep	*	*rep	*	*	*	*	*	*	*	*rep	*	*rep	*	*rep	*	*	*	*	*	*	*	*	*
2ryy	.	8GG/yy	.	8G\yy	.	8ryy	.	8ryy	.	16g'/LL	.	2ryy	.	2ryy	.	8GG\ 8Gyy	.	8ryy	.	8ryy	.	16g'/LLyy	.	2ryy	.	2ryy	.	16gg\LLyy	.
.	.	.	.	.	.	.	.	.	.	16a'/JJ	.	.	.	.	.	.	.	.	.	.	.	16a'/JJyy	.	.	.	.	.	16aa\JJyy	.
.	.	8ryy	.	8ryy	.	8G\ 8dyy	.	8B/ 8gyy	.	4b'^/	.	.	.	.	.	8ryy	.	8B/ 8gyy	.	8g/ 8ddyy	.	4b/yy	.	.	.	.	.	4bb\yy	.
.	.	8G\yy	.	8G\yy	.	8ryy	.	8ryy	.	.	.	.	.	.	.	8GG\ 8Gyy	.	8ryy	.	8ryy	.	.	.	.	.	.	.	.	.
.	.	8ryy	.	8ryy	.	8G\ 8dyy	.	8B/ 8gyy	.	16a'/LL	.	.	.	.	.	8ryy	.	8B/ 8gyy	.	8g/ 8ddyy	.	16a/LLyy	.	.	.	.	.	16aa\LLyy	.
.	.	.	.	.	.	.	.	.	.	16g'/JJ	.	.	.	.	.	.	.	.	.	.	.	16g/JJyy	.	.	.	.	.	16gg\JJyy	.
*	*	*	*	*	*	*Xrep	*	*Xrep	*	*	*	*	*	*	*	*Xrep	*	*Xrep	*	*Xrep	*	*	*	*	*	*	*	*	*
=29	=29	=29	=29	=29	=29	=29	=29	=29	=29	=29	=29	=29	=29	=29	=29	=29	=29	=29	=29	=29	=29	=29	=29	=29	=29	=29	=29	=29	=29
*	*	*	*	*	*	*	*	*	*	*	*	*	*	*	*	*	*	*	*	*^	*	*	*	*	*	*	*	*	*
2ryy	.	8D\yy	.	8D\yy	.	8ryy	.	8ryy	.	8f#/	.	2ryy	.	2ryy	.	8DD\ 8Dyy	.	8ryy	.	8ryy	8ryyyy	.	8f#/yy	.	8ryy	.	8ryy	.	8ff#\yy	.
.	.	8ryy	.	8ryy	.	8A\ 8dyy	.	8c/ 8f#yy	.	4dd^<\	.	.	.	.	.	8ryy	.	8d/ 8ayy	.	8dd/yy	8cc\yy	.	8ryy	.	4dd\yy	.	4dd^<\yy	.	4ryy	.
.	.	8D\yy	.	8D\yy	.	8ryy	.	8ryy	.	.	.	.	.	.	.	8DD\ 8Dyy	.	8ryy	.	8ryy	8ryy	.	4ryy	.	.	.	.	.	.	.
.	.	8ryy	.	8ryy	.	8A\ 8dyy	.	8c/ 8f#yy	.	8dd\	.	.	.	.	.	8ryy	.	8d/ 8ayy	.	8dd/yy	8cc\yy	.	.	.	8dd\yy	.	8dd\yy	.	8ryy	.
!!LO:PB:g=original
=30	=30	=30	=30	=30	=30	=30	=30	=30	=30	=30	=30	=30	=30	=30	=30	=30	=30	=30	=30	=30	=30	=30	=30	=30	=30	=30	=30	=30	=30	=30
*	*	*	*	*	*	*	*	*	*	*	*	*	*	*	*	*	*	*	*	*	*	*	*	*	*^	*	*	*	*	*
2ryy	.	8D\yy	.	16d\LLyy	.	8ryy	.	8ryy	.	16dd'\LL	.	2ryy	.	2ryy	.	8DD/ 8Dyy	.	8ryy	.	8ryy	8ryyyy	.	2ryy	.	16dd/LLyy	2ryy	.	16dd'\LLyy	.	2ryy	.
.	.	.	.	16e\JJyy	.	.	.	.	.	16ee'\JJ	.	.	.	.	.	.	.	.	.	.	.	.	.	.	16ee/JJyy	.	.	16ee'\JJyy	.	.	.
.	.	8ryy	.	8.f#\Lyy	.	8A\ 8dyy	.	8c/ 8f#yy	.	8.ff#\L	.	.	.	.	.	8ryy	.	8d\ 8ayy	.	8dd/yy	8cc\yy	.	.	.	8.ff#/Lyy	.	.	8.ff#\Lyy	.	.	.
.	.	8D\yy	.	.	.	8ryy	.	8ryy	.	.	.	.	.	.	.	8DD/ 8Dyy	.	8ryy	.	8ryy	8ryyyy	.	.	.	.	.	.	.	.	.	.
.	.	.	.	16e\Lyy	.	.	.	.	.	16ee\L	.	.	.	.	.	.	.	.	.	.	.	.	.	.	16ee/Lyy	.	.	16ee\Lyy	.	.	.
.	.	8ryy	.	16c\yy	.	8A\ 8dyy	.	8c/ 8f#yy	.	16cc\	.	.	.	.	.	8ryy	.	8d\ 8ayy	.	8dd/yy	8cc\yy	.	.	.	16dd/yy	.	.	16dd\yy	.	.	.
.	.	.	.	16A\JJyy	.	.	.	.	.	16a\JJ	.	.	.	.	.	.	.	.	.	.	.	.	.	.	16cc/JJyy	.	.	16cc\JJyy	.	.	.
*	*	*	*	*	*	*	*	*	*	*	*	*	*	*	*	*	*	*	*	*v	*v	*	*	*	*	*	*	*	*	*	*
=31	=31	=31	=31	=31	=31	=31	=31	=31	=31	=31	=31	=31	=31	=31	=31	=31	=31	=31	=31	=31	=31	=31	=31	=31	=31	=31	=31	=31	=31	=31
2ryy	.	8GG/yy	.	8G\yy	.	8ryy	.	8ryy	.	8g/	f	2ryy	.	2ryy	.	8GG\ 8Gyy	.	8ryy	.	8ryy	.	8ryy	.	8g/yy	2ryy	.	8g/yy	.	8ryy	.
.	.	8ryy	.	4G^<\yy	.	8G\ 8dyy	.	8B/ 8gyy	.	4gg^<\	.	.	.	.	.	8ryy	.	8B/ 8gyy	.	8g/ 8ddyy	.	4g^>/yy	.	8ryy	.	.	8ryy	.	4gg^<\yy	.
.	.	8G\yy	.	.	.	8ryy	.	8ryy	.	.	.	.	.	.	.	8GG\ 8Gyy	.	8ryy	.	8ryy	.	.	.	4ryy	.	.	4ryy	.	.	.
.	.	8ryy	.	8G\yy	.	8G\ 8dyy	.	8B/ 8gyy	.	8gg\	.	.	.	.	.	8ryy	.	8B/ 8gyy	.	8g/ 8ddyy	.	8g/yy	.	.	.	.	.	.	8gg\yy	.
=32	=32	=32	=32	=32	=32	=32	=32	=32	=32	=32	=32	=32	=32	=32	=32	=32	=32	=32	=32	=32	=32	=32	=32	=32	=32	=32	=32	=32	=32	=32
*	*	*	*	*	*	*rep	*	*	*	*	*	*	*	*	*	*rep	*	*rep	*	*rep	*	*	*	*	*	*	*	*	*	*
2ryy	.	8GG/yy	.	16G\LLyy	.	8ryy	.	8ryy	.	16gg\LL	.	2ryy	.	2ryy	.	8GG\ 8Gyy	.	8ryy	.	8ryy	.	16g'/LLyy	.	2ryy	2ryy	.	2ryy	.	16gg\LLyy	.
.	.	.	.	16A\JJyy	.	.	.	.	.	16aa\JJ	.	.	.	.	.	.	.	.	.	.	.	16a'/JJyy	.	.	.	.	.	.	16aa\JJyy	.
.	.	8ryy	.	4B\yy	.	8G\ 8dyy	.	8B/ 8gyy	.	4bb\	.	.	.	.	.	8ryy	.	8B/ 8gyy	.	8g/ 8ddyy	.	4b^>/yy	.	.	.	.	.	.	4bb\yy	.
.	.	8G\yy	.	.	.	8ryy	.	8ryy	.	.	.	.	.	.	.	8GG\ 8Gyy	.	8ryy	.	8ryy	.	.	.	.	.	.	.	.	.	.
.	.	8ryy	.	16A\LLyy	.	8G\ 8dyy	.	8B/ 8gyy	.	16aa\LL	.	.	.	.	.	8ryy	.	8B/ 8gyy	.	8g/ 8ddyy	.	16a'/LLyy	.	.	.	.	.	.	16aa\LLyy	.
.	.	.	.	16G\JJyy	.	.	.	.	.	16gg\JJ	.	.	.	.	.	.	.	.	.	.	.	16g'/JJyy	.	.	.	.	.	.	16gg\JJyy	.
*	*	*	*	*	*	*Xrep	*	*	*	*	*	*	*	*	*	*Xrep	*	*Xrep	*	*Xrep	*	*	*	*	*	*	*	*	*	*
=33	=33	=33	=33	=33	=33	=33	=33	=33	=33	=33	=33	=33	=33	=33	=33	=33	=33	=33	=33	=33	=33	=33	=33	=33	=33	=33	=33	=33	=33	=33
*	*	*	*	*	*	*	*	*	*	*	*	*	*	*	*	*	*	*	*	*^	*	*	*	*	*	*	*	*	*	*
2ryy	.	8D\yy	.	8F#\yy	.	8ryy	.	8ryy	.	8ff#\	.	2ryy	.	2ryy	.	8DD/ 8Dyy	.	8ryy	.	8ryy	8ryyyy	.	8f#/yy	.	8ryy	2ryy	.	8ryy	.	8ff#\yy	.
.	.	8ryy	.	4d^\yy	.	8A\ 8dyy	.	8c/ 8f#yy	.	4ddd^<\	.	.	.	.	.	8ryy	.	8d/ 8ayy	.	8dd/yy	8cc\yy	.	8ryy	.	4dd/yy	.	.	4dd^<\yy	.	8ryy	.
.	.	8D\yy	.	.	.	8ryy	.	8ryy	.	.	.	.	.	.	.	8DD/ 8Dyy	.	8ryy	.	8ryy	8ryyyy	.	4ryy	.	.	.	.	.	.	4ryy	.
.	.	8ryy	.	8d\yy	.	8A\ 8dyy	.	8c/ 8f#yy	.	8ddd\	.	.	.	.	.	8ryy	.	8d/ 8ayy	.	8dd/yy	8cc\yy	.	.	.	8dd/yy	.	.	8dd\yy	.	.	.
=34	=34	=34	=34	=34	=34	=34	=34	=34	=34	=34	=34	=34	=34	=34	=34	=34	=34	=34	=34	=34	=34	=34	=34	=34	=34	=34	=34	=34	=34	=34	=34
2ryy	.	8D\yy	.	16f#\LLyy	.	8ryy	.	8ryy	.	16fff#\LL	.	2ryy	.	2ryy	.	8DD/ 8Dyy	.	8ryy	.	8ryy	8ryyyy	.	2ryy	.	16ff#/LLyy	2ryy	.	16ff#\LLyy	.	2ryy	.
.	.	.	.	16e\yy	.	.	.	.	.	16eee\	.	.	.	.	.	.	.	.	.	.	.	.	.	.	16ee/yy	.	.	16ee\yy	.	.	.
.	.	8ryy	.	16c\yy	.	8A\ 8dyy	.	8c/ 8f#yy	.	16ccc\	.	.	.	.	.	8ryy	.	8d/ 8ayy	.	8dd/yy	8cc\yy	.	.	.	16cc/yy	.	.	16cc\yy	.	.	.
.	.	.	.	16A\JJyy	.	.	.	.	.	16aa\JJ	.	.	.	.	.	.	.	.	.	.	.	.	.	.	16a/JJyy	.	.	16a\JJyy	.	.	.
.	.	8G\yy	.	8G\yy	.	8ryy	.	8ryy	.	8gg\	.	.	.	.	.	8GG\ 8Gyy	.	8B/ 8gyy	.	8g/ 8ddyy	4ryyyy	.	.	.	8g/yy	.	.	8g/yy	.	.	.
.	.	8ryy	.	8ryy	.	8G\ 8dyy	.	8B/ 8gyy	.	8r	.	.	.	.	.	8ryy	.	8ryy	.	8ryy	.	.	.	.	8ryy	.	.	8ryy	.	.	.
*	*	*	*	*	*	*	*	*	*	*	*	*	*	*	*	*	*	*	*	*v	*v	*	*	*	*v	*v	*	*	*	*	*
=35|!|:	=35|!|:	=35|!|:	=35|!|:	=35|!|:	=35|!|:	=35|!|:	=35|!|:	=35|!|:	=35|!|:	=35|!|:	=35|!|:	=35|!|:	=35|!|:	=35|!|:	=35|!|:	=35|!|:	=35|!|:	=35|!|:	=35|!|:	=35|!|:	=35|!|:	=35|!|:	=35|!|:	=35|!|:	=35|!|:	=35|!|:	=35|!|:	=35|!|:	=35|!|:
*	*	*	*	*	*	*	*	*	*	*	*	*	*	*	*	*^	*	*	*	*	*	*^	*	*	*	*	*	*	*
2ryy	.	4C/yy	.	8CC/Lyy	.	8ryy	.	8ryy	.	16cc'\LL	.	2ryy	.	16c'/LLyy	.	8C/Lyy	4C\yy	.	8ryy	.	8ryy	.	16cc'/LLyy	16cc\LLyy	.	2ryy	.	2ryy	.	2ryy	.
.	.	.	.	.	.	.	.	.	.	16dd'\J	.	.	.	16d'/JJyy	.	.	.	.	.	.	.	.	16dd'/JJyy	16dd\JJyy	.	.	.	.	.	.	.
.	.	.	.	8C/yy	.	8c\L 8gyy	.	8G/L 8eyy	.	8.ee'\J	.	.	.	8.e'/yy	.	8G/yy	.	.	8G/L 8gyy	.	8cc\L 8eeyy	mf	8.ee'/ 8.e\yy	8.ryyyy	.	.	.	.	.	.	.
.	.	4ryy	.	8C/yy	.	8c\ 8gyy	.	8G/ 8eyy	.	.	.	.	.	.	.	8c/yy	4ryy	.	8G/ 8gyy	.	8cc\ 8eeyy	.	.	.	.	.	.	.	.	.	.
.	.	.	.	.	.	.	.	.	.	16dd'\LL	.	.	.	16d'/LLyy	.	.	.	.	.	.	.	.	16dd'/LLyy	16dd\LLyy	.	.	.	.	.	.	.
.	.	.	.	8C/Jyy	.	8c\J 8gyy	.	8G/J 8eyy	.	16ee'\	.	.	.	16e'/yy	.	8G/Jyy	.	.	8G/J 8gyy	.	8cc\J 8eeyy	.	16ee'/yy	16ee\yy	.	.	.	.	.	.	.
.	.	.	.	.	.	.	.	.	.	16ffn'\JJ	.	.	.	16f#'/JJyy	.	.	.	.	.	.	.	.	16ffn'/JJyy	16ffn\JJyy	.	.	.	.	.	.	.
=36	=36	=36	=36	=36	=36	=36	=36	=36	=36	=36	=36	=36	=36	=36	=36	=36	=36	=36	=36	=36	=36	=36	=36	=36	=36	=36	=36	=36	=36	=36	=36
*	*	*	*	*rep	*	*rep	*	*rep	*	*	*	*	*	*	*	*rep	*rep	*	*rep	*	*rep	*	*	*	*	*	*	*	*	*	*
2ryy	.	4C/yy	.	8CC/Lyy	.	8ryy	.	8ryy	.	8gg\|	.	2ryy	.	8g/yy	.	8C/Lyy	4C\yy	.	8ryy	.	8ryy	.	8gg/yy	8gg\yy	.	2ryy	.	2ryy	.	2ryy	.
.	.	.	.	8C/yy	.	8c\L 8gyy	.	8G/L 8eyy	.	4ee^<\|	.	.	.	4e/yy	.	8G/yy	.	.	8G/L 8gyy	.	8cc\L 8eeyy	.	4ee^</yy	4ee\yy	.	.	.	.	.	.	.
.	.	4ryy	.	8C/yy	.	8c\ 8gyy	.	8G/ 8eyy	.	.	.	.	.	.	.	8c/yy	4ryy	.	8G/ 8gyy	.	8cc\ 8eeyy	.	.	.	.	.	.	.	.	.	.
.	.	.	.	8C/Jyy	.	8c\J 8gyy	.	8G/J 8eyy	.	(16dd\LL	.	.	.	16d/LLyy	.	8G/Jyy	.	.	8G/J 8gyy	.	8cc\J 8eeyy	.	16dd/LLyy	16dd\LLyy	.	.	.	.	.	.	.
.	.	.	.	.	.	.	.	.	.	16cc\JJ)	.	.	.	16c/JJyy	.	.	.	.	.	.	.	.	16cc/JJyy	16cc\JJyy	.	.	.	.	.	.	.
*	*	*	*	*Xrep	*	*Xrep	*	*Xrep	*	*	*	*	*	*	*	*Xrep	*Xrep	*	*Xrep	*	*Xrep	*	*	*	*	*	*	*	*	*	*
=37	=37	=37	=37	=37	=37	=37	=37	=37	=37	=37	=37	=37	=37	=37	=37	=37	=37	=37	=37	=37	=37	=37	=37	=37	=37	=37	=37	=37	=37	=37	=37
*	*	*	*	*	*	*tremolo	*	*	*	*	*	*	*	*	*	*	*	*	*	*	*	*	*	*2\right	*	*	*	*	*	*	*
*	*	*	*	*	*	*2\right	*	*	*	*	*	*	*	*	*	*	*	*	*	*	*	*	*	*	*	*	*	*	*	*	*
!	!	!	!	!	!	!	!	!	!	!	!	!	!	!	!	!	!	!	!	!	!	!	!	!	!	!LO:TX:a:t=col violini	!	!	!	!	!
!LO:SIC:s=4GG\	!	!	!	!	!	!	!LO:DY:rj	!	!	!	!LO:DY:rj	!	!	!	!	!	!	!LO:DY:rj	!	!LO:DY:rj	!	!	!	!	!LO:DY:rj	!	!	!	!	!	!LO:DY:rj
4Re\yy	f	4G\yy	.	4GG/yy	.	16G\LL 16fnyy	f	(16g/LLyy	.	(16b\LL	f <	(2GG/yy	ff	2G/ 2gyy	.	8GG/Lyy	4GG\yy	ff	[2G/ [2gyy	ff	((2g/ 2ddyy	.	(2b/yy	(2fn\yy	ff	(16b\LLyyyy	fyy <	(16b\LLyy	.	(16gg\LLyy	ff
.	.	.	.	.	.	16G\ 16fnyy	.	16a/)yy	.	16cc\)	.	.	.	.	.	.	.	.	.	.	.	.	.	.	.	16cc\)yyyy	.	16cc\)yy	.	16aa\)yy	.
.	.	.	.	.	.	16G\ 16fnyy	.	16b'/yy	.	16dd'\	.	.	.	.	.	8G/Jyy	.	.	.	.	.	.	.	.	.	16dd'\yyyy	.	16dd\yy	.	16bb'\yy	.
.	.	.	.	.	.	16G\ 16fnyy	.	16cc'/JJyy	.	16ee'\JJ	.	.	.	.	.	.	.	.	.	.	.	.	.	.	.	16ee'\JJyyyy	.	16ee\JJyy	.	16ccc'\JJyy	.
!LO:TX:a:t=tr	!	!	!	!	!	!	!	!	!	!	!	!	!	!	!	!	!	!	!	!	!	!	!	!	!	!	!	!	!	!	!
!LO:SIC:s=4GG\	!	!	!	!	!	!	!	!	!	!	!	!	!	!	!	!	!	!	!	!	!	!	!	!	!	!	!	!	!	!	!
4Re\yy	.	4g\yy	.	4G\yy	.	16G\ 16fnyy	.	(16dd\LLyy	.	(16ffn\LL	.	.	.	.	.	8GG/Lyy	4GG\yy	.	.	.	.	.	.	.	.	(16ffn\LLyyyy	.	(16ffn\LLyy	.	(16ddd\LLyy	.
.	.	.	.	.	.	16G\ 16fnyy	.	16ee\)yy	.	16gg\)	.	.	.	.	.	.	.	.	.	.	.	.	.	.	.	16gg\)yyyy	.	16gg\)yy	.	16eee\)yy	.
.	.	.	.	.	.	16G\ 16fnyy	.	16ffn'\yy	.	16aa'\	.	.	.	.	.	8G/Jyy	.	.	.	.	.	.	.	.	.	16aa'\yyyy	.	16aa\yy	.	16fffn'\yy	.
.	.	.	.	.	.	16G\JJ 16fnyy	.	16dd'\JJyy	.	16bb'\JJ	[	.	.	.	.	.	.	.	.	.	.	.	.	.	.	16bb'\JJyyyy	[	16bb\JJyy	.	16ddd'\JJyy	.
*	*	*	*	*	*	*	*	*	*	*	*	*	*	*	*	*	*	*	*	*	*	*	*v	*v	*	*	*	*	*	*	*
=38	=38	=38	=38	=38	=38	=38	=38	=38	=38	=38	=38	=38	=38	=38	=38	=38	=38	=38	=38	=38	=38	=38	=38	=38	=38	=38	=38	=38	=38	=38
!LO:SIC:s=4D/	!	!	!	!	!	!	!	!	!	!	!	!	!	!	!	!	!	!	!	!	!	!	!	!	!	!	!	!	!	!
4Re/yy	.	4C/yy	.	4C/yy	.	16G\LL 16eyy	.	(16ee\LLyy	.	(16ccc\LL	>	8C/L)yy	.	8c/Lyy	.	8C/Lyy	4C\yy	.	8G/L] 8g]yy	.	8e/L)) 8ccyy	.	8e'/L) 8cc)yy	.	(16ccc\LLyyyy	>	(16ccc\LLyy	.	(16eee\LLyy	.
.	.	.	.	.	.	16G\ 16eyy	.	16dd\)yy	.	16ddd\)	.	.	.	.	.	.	.	.	.	.	.	.	.	.	16ddd\)yyyy	.	16ddd\)yy	.	16ddd\)yy	.
.	.	.	.	.	.	16G\ 16eyy	.	16cc'\yy	.	16eee'\	.	8C'/Jyy	.	16e/Lyy	.	8c/Jyy	.	.	8G'/J 8gyy	.	8e'/J 8ccyy	.	8e'/J 8ccyy	.	16eee'\yyyy	.	16eee\yy	.	16ccc\yy	.
.	.	.	.	.	.	16G\ 16eyy	.	16b'\JJyy	.	16ddd'\JJ	.	.	.	16g/JJyy	.	.	.	.	.	.	.	.	.	.	16ddd'\JJyyyy	.	16ddd\JJyy	.	16bb\JJyy	.
*	*	*	*	*	*	*	*	*	*	*	*	*	*	*	*	*rep	*rep	*	*	*	*	*	*	*	*	*	*	*	*	*
!LO:TX:a:t=tr	!	!	!	!	!	!	!	!	!	!	!	!	!	!	!	!	!	!	!	!	!	!	!	!	!	!	!	!	!	!
!LO:SIC:s=4D/	!	!	!	!	!	!	!	!	!	!	!	!	!	!	!	!	!	!	!	!	!	!	!	!	!	!	!	!	!	!
4Re/yy	.	4c\yy	.	4CC\ 4GG 4E 4cyy	.	16G\ 16eyy	.	(16a/LLyy	.	(16ccc\LL	.	4C/yy	.	4c/ 4ccyy	.	8C/Lyy	4C\yy	.	4G'/ 4gyy	.	4e'^/ 4ccyy	.	4e'^</ 4ccyy	.	(16ccc\LLyyyy	.	(16ccc\LLyy	.	(16aa\LLyy	.
.	.	.	.	.	.	16G\ 16eyy	.	16g/)yy	.	16bb\)	.	.	.	.	.	.	.	.	.	.	.	.	.	.	16bb\)yyyy	.	16bb\)yy	.	16gg\)yy	.
.	.	.	.	.	.	16G\ 16eyy	.	16fn'/yy	.	16aa'\	.	.	.	.	.	8c/Jyy	.	.	.	.	.	.	.	.	16aa'\yyyy	.	16aa\yy	.	16ffn\yy	.
.	.	.	.	.	.	16G\JJ 16eyy	.	16e'/JJyy	.	16gg'\JJ	]	.	.	.	.	.	.	.	.	.	.	.	.	.	16gg'\JJyyyy	]	16gg\JJyy	.	16ee\JJyy	.
*	*	*	*	*	*	*	*	*	*	*	*	*	*	*	*	*Xrep	*Xrep	*	*	*	*	*	*	*	*	*	*	*	*	*
=39	=39	=39	=39	=39	=39	=39	=39	=39	=39	=39	=39	=39	=39	=39	=39	=39	=39	=39	=39	=39	=39	=39	=39	=39	=39	=39	=39	=39	=39	=39
*	*	*	*	*	*	*	*	*	*	*	*	*	*	*	*	*	*	*	*	*	*	*	*^	*	*	*	*	*	*	*
!	!	!	!	!	!	!	!	!	!	!	!	!	!	!	!	!	!	!	!	!	!	!	!	!	!LO:DY:rj	!	!	!	!	!	!
2ryy	.	4C/yy	.	8CC/Lyy	.	8ryy	.	8ryy	.	16cc'\LL	mf	2ryy	.	16c/LLyy	.	8C/Lyy	4C\yy	.	8ryy	.	8ryy	.	16cc'/LLyy	16cc\LLyy	mf	2ryy	.	2ryy	.	2ryy	.
.	.	.	.	.	.	.	.	.	.	16dd'\J	.	.	.	16d/JJyy	.	.	.	.	.	.	.	mf	16dd'/JJyy	16dd\JJyy	.	.	.	.	.	.	.
*	*	*	*	*	*	*	*	*tremolo	*	*	*	*	*	*	*	*	*	*	*tremolo	*	*tremolo	*	*	*	*	*	*	*	*	*	*
.	.	.	.	8C/yy	.	8c\L 8gyy	.	8G/L 8eyy	.	8.ee'\J	.	.	.	8.e/yy	.	8G/yy	.	.	8G/L 8gyy	.	8cc\L 8eeyy	.	8.ee'/yy	8.ee\yy	.	.	.	.	.	.	.
.	.	4ryy	.	8C/yy	.	8c\ 8gyy	.	8G/ 8eyy	.	.	.	.	.	.	.	8c/yy	4ryy	.	8G/ 8gyy	.	8cc\ 8eeyy	.	.	.	.	.	.	.	.	.	.
.	.	.	.	.	.	.	.	.	.	16dd'\LL	.	.	.	16d/LLyy	.	.	.	.	.	.	.	.	16dd'/LLyy	16dd\LLyy	.	.	.	.	.	.	.
.	.	.	.	8C/Jyy	.	8c\J 8gyy	.	8G/J 8eyy	.	16ee'\	.	.	.	16e/yy	.	8G/Jyy	.	.	8G/J 8gyy	.	8cc\J 8eeyy	.	16ee'/yy	16ee\yy	.	.	.	.	.	.	.
.	.	.	.	.	.	.	.	.	.	16ffn'\JJ	.	.	.	16f#/JJyy	.	.	.	.	.	.	.	.	16ffn'/JJyy	16ffn\JJyy	.	.	.	.	.	.	.
*	*	*	*	*	*	*	*	*	*	*	*	*	*	*	*	*	*	*	*	*	*	*	*	*	*	*	*	*	*	*	*
!!LO:PB:g=original
=40	=40	=40	=40	=40	=40	=40	=40	=40	=40	=40	=40	=40	=40	=40	=40	=40	=40	=40	=40	=40	=40	=40	=40	=40	=40	=40	=40	=40	=40	=40	=40
*	*	*	*	*	*	*	*	*	*	*	*	*	*	*	*	*rep	*rep	*	*	*	*	*	*	*	*	*	*	*	*	*	*
2ryy	.	4C/yy	.	8CC/Lyy	.	8ryy	.	8ryy	.	8gg\	.	2ryy	.	8g/yy	.	8C/Lyy	4C\yy	.	8ryy	.	8ryy	.	8gg/yy	8gg\yy	.	2ryy	.	2ryy	.	2ryy	.
.	.	.	.	8C/yy	.	8c\L 8gyy	.	8G/L 8eyy	.	4ee^\	.	.	.	4e/yy	.	8G/yy	.	.	8G/L 8gyy	.	8cc\L 8eeyy	.	4ee^</yy	4ee\yy	.	.	.	.	.	.	.
.	.	4ryy	.	8C/yy	.	8c\ 8gyy	.	8G/ 8eyy	.	.	.	.	.	.	.	8c/yy	4ryy	.	8G/ 8gyy	.	8cc\ 8eeyy	.	.	.	.	.	.	.	.	.	.
.	.	.	.	8C/Jyy	.	8c\J 8gyy	.	8G/J 8eyy	.	(16dd\LL	.	.	.	16d/LLyy	.	8G/Jyy	.	.	8G/J 8gyy	.	8cc\J 8eeyy	.	16dd/LLyy	16dd\LLyy	.	.	.	.	.	.	.
.	.	.	.	.	.	.	.	.	.	16cc\JJ)	.	.	.	16c/JJyy	.	.	.	.	.	.	.	.	16cc/JJyy	16cc\JJyy	.	.	.	.	.	.	.
*	*	*	*	*	*	*	*	*	*	*	*	*	*	*	*	*Xrep	*Xrep	*	*Xtremolo	*	*Xtremolo	*	*	*	*	*	*	*	*	*	*
=41	=41	=41	=41	=41	=41	=41	=41	=41	=41	=41	=41	=41	=41	=41	=41	=41	=41	=41	=41	=41	=41	=41	=41	=41	=41	=41	=41	=41	=41	=41	=41
!LO:TX:a:t=tr	!	!	!	!	!	!	!	!	!	!	!	!	!	!	!	!	!	!	!	!	!	!	!	!	!	!LO:TX:a:t=col violini	!	!	!	!	!
!LO:SIC:s=2GG\	!	!	!	!	!LO:DY:rj	!	!LO:DY:rj	!	!	!	!	!	!	!	!	!	!	!LO:DY:rj	!	!LO:DY:rj	!	!	!	!	!	!	!	!	!	!	!LO:DY:rj
2Re\yy	f	4GG/yy	.	4GG/yy	f	16G\LL 16fnyy	f	16g/LLyy	.	(16b\LL	f <	(2GG/yy	ff	2G/ 2gyy	.	8GG/Lyy	4GG\yy	ff	[2G/ [2gyy	ff	((2g/ 2ddyy	.	(2b/yy	(2fn\yy	ff	(16b\LLyy	f <	(16b\LLyy	.	(16gg\LLyy	ff
.	.	.	.	.	.	16G\ 16fyy	.	16a/yy	.	16cc\)	.	.	.	.	.	.	.	.	.	.	.	.	.	.	.	16cc\)yy	.	16cc\)yy	.	16aa\)yy	.
.	.	.	.	.	.	16G\ 16fyy	.	16b/yy	.	16dd'\	.	.	.	.	.	8G/Jyy	.	.	.	.	.	.	.	.	.	16dd'\yy	.	16dd\yy	.	16bb'\yy	.
.	.	.	.	.	.	16G\ 16fyy	.	16cc/JJyy	.	16ee'\JJ	.	.	.	.	.	.	.	.	.	.	.	.	.	.	.	16ee'\JJyy	.	16ee\JJyy	.	16ccc'\JJyy	.
.	.	4G\yy	.	4G\yy	.	16G\ 16fyy	.	16dd\LLyy	.	(16ffn\LL	.	.	.	.	.	8GG/Lyy	4GG\yy	.	.	.	.	.	.	.	.	(16ffn\LLyy	.	(16ffn\LLyy	.	(16ddd\LLyy	.
.	.	.	.	.	.	16G\ 16fyy	.	16ee\yy	.	16gg\)	.	.	.	.	.	.	.	.	.	.	.	.	.	.	.	16gg\)yy	.	16gg\)yy	.	16eee\)yy	.
.	.	.	.	.	.	16G\ 16fyy	.	16ffn\yy	.	16aa'\	.	.	.	.	.	8G/Jyy	.	.	.	.	.	.	.	.	.	16aa'\yy	.	16aa\yy	.	16fffn'\yy	.
.	.	.	.	.	.	16G\JJ 16fyy	.	16dd\JJyy	.	16bb'\JJ	[	.	.	.	.	.	.	.	.	.	.	.	.	.	.	16bb'\JJyy	[	16bb\JJyy	.	16ddd'\JJyy	.
*	*	*	*	*	*	*Xtremolo	*	*	*	*	*	*	*	*	*	*	*	*	*	*	*	*	*	*	*	*	*	*	*	*	*
*	*	*	*	*	*	*	*	*	*	*	*	*	*	*	*	*	*	*	*	*	*	*	*v	*v	*	*	*	*	*	*	*
=42	=42	=42	=42	=42	=42	=42	=42	=42	=42	=42	=42	=42	=42	=42	=42	=42	=42	=42	=42	=42	=42	=42	=42	=42	=42	=42	=42	=42	=42	=42
*	*	*	*	*^	*	*	*	*	*	*	*	*	*	*	*	*	*	*	*	*	*	*	*	*	*	*	*	*	*	*
*	*	*	*	*	*	*	*	*	*	*	*	*	*	*	*	*	*	*	*	*	*	*	*	*	*	*	*	*	*	*	*
!LO:SIC:s=8D/L	!	!LO:TX:t=P:problem:mixedbeam	!	!	!LO:TX:t=P:problem:mixedbeam	!	!	!	!	!	!	!	!	!	!	!	!	!	!	!	!	!	!	!	!	!	!	!	!	!	!
8Re/yy	.	8C/Lyy	.	8C/Lyy	8ryyyy	.	8G\L 8eyy	.	8cc\ 8eeyy	.	8ccc'\L	.	8C/L)yy	.	8c/Lyy	.	8C/Lyy	4C\yy	.	8G/L] 8g]yy	.	8e/L)) 8ccyy	.	8e'/L)) 8ccyy	.	(16ccc\LLyy	>	(16ccc\LLyy	.	(16eee\LLyy	.
.	.	.	.	.	.	.	.	.	.	.	.	.	.	.	.	.	.	.	.	.	.	.	.	.	.	16ddd\)yy	.	16ddd\)yy	.	16ddd\)yy	.
!LO:SIC:s=8D/J	!	!	!	!	!	!	!	!	!	!	!	!	!	!	!	!	!	!	!	!	!	!	!	!	!	!	!	!	!	!	!
8Re/yy	.	8c\yy	.	8Eyy	8CCL\ 8GG\ 8c\yy	.	8G\ 8eyy	.	8eL<\ 8cc 8ggyy	.	8ddd'\	.	8C'/Jyy	.	16e/Lyy	.	8c/Jyy	.	.	8G'/J 8gyy	.	8e'/J 8ccyy	.	8e'/J 8ccyy	.	16eee'\yy	.	16eee\yy	.	16ccc\yy	.
.	.	.	.	.	.	.	.	.	.	.	.	.	.	.	16g/JJyy	.	.	.	.	.	.	.	.	.	.	16ddd'\JJyy	.	16ddd\JJyy	.	16bb\JJyy	.
*	*	*	*	*	*	*	*	*	*	*	*	*	*	*	*	*	*rep	*rep	*	*	*	*	*	*	*	*	*	*	*	*	*
!LO:SIC:s=8D\	!	!	!	!	!	!	!	!	!	!	!	!	!	!	!	!	!	!	!	!	!	!	!	!	!	!	!	!	!	!	!
8Re\yy	.	8C/Jyy	.	8C/Jyy	8C\Jyy	.	8G\J 8eyy	.	8eJ/ 8ccyy	.	8ccc'J\	.	4C/yy	.	4c/ 4ccyy	.	8C/Lyy	4C\yy	.	4G'/ 4gyy	.	4e'^/ 4ccyy	.	4e^/ 4cc.yy	.	(16ccc\LLyy	.	(16ccc\LLyy	.	(16aa\LLyy	.
.	.	.	.	.	.	.	.	.	.	.	.	.	.	.	.	.	.	.	.	.	.	.	.	.	.	16bb\)yy	.	16bb\)yy	.	16gg\)yy	.
8ryy	.	8ryy	.	8ryy	8ryyyy	.	8ryy	.	8ryy	.	8r	.	.	.	.	.	8c/Jyy	.	.	.	.	.	.	.	.	16aa'\yy	.	16aa\yy	.	16ffn\yy	.
.	.	.	.	.	.	.	.	.	.	.	.	.	.	.	.	.	.	.	.	.	.	.	.	.	.	16gg'\JJyy	]	16gg\JJyy	.	16ee\JJyy	.
*	*	*	*	*	*	*	*	*	*	*	*	*	*	*	*	*	*Xrep	*Xrep	*	*	*	*	*	*	*	*	*	*	*	*	*
*	*	*	*	*v	*v	*	*	*	*	*	*	*	*	*	*	*	*	*	*	*	*	*	*	*	*	*	*	*	*	*	*
*	*	*	*	*	*	*	*	*	*	*	*	*	*	*	*	*v	*v	*	*	*	*	*	*	*	*	*	*	*	*	*
=43:|!	=43:|!	=43:|!	=43:|!	=43:|!	=43:|!	=43:|!	=43:|!	=43:|!	=43:|!	=43:|!	=43:|!	=43:|!	=43:|!	=43:|!	=43:|!	=43:|!	=43:|!	=43:|!	=43:|!	=43:|!	=43:|!	=43:|!	=43:|!	=43:|!	=43:|!	=43:|!	=43:|!	=43:|!	=43:|!
2ryy	.	8GG/yy	.	8GG/yyyy	.	8ryy	.	8ryy	mf	8d/	.	2ryy	.	2ryy	.	8GG\ 8Gyy	mf	8ryy	.	8ryy	mf	8d/yy	.	2ryy	.	2ryy	.	8dd\yy	.
.	.	8ryy	.	8ryyyy	.	8G\ 8dyy	.	8B/ 8gyy	.	4g/	.	.	.	.	.	8ryy	.	8B/ 8gyy	.	8g/ 8ddyy	.	4g/yy	.	.	.	.	.	4gg\yy	.
.	.	8G\yy	.	8G\yyyy	.	8ryy	.	8ryy	.	.	.	.	.	.	.	8GG\ 8Gyy	.	8ryy	.	8ryy	.	.	.	.	.	.	.	.	.
.	.	8ryy	.	8ryyyy	.	8G\ 8dyy	.	8B/ 8gyy	.	8g/	.	.	.	.	.	8ryy	.	8B/ 8gyy	.	8g/ 8ddyy	.	8g/yy	.	.	.	.	.	8gg\yy	.
=44	=44	=44	=44	=44	=44	=44	=44	=44	=44	=44	=44	=44	=44	=44	=44	=44	=44	=44	=44	=44	=44	=44	=44	=44	=44	=44	=44	=44	=44
*	*	*	*	*	*	*rep	*	*rep	*	*	*	*	*	*	*	*rep	*	*rep	*	*rep	*	*	*	*	*	*	*	*	*
2ryy	.	8G\yy	.	8G\yyyy	.	8ryy	.	8ryy	.	16g/LL	.	2ryy	.	2ryy	.	8GG\ 8Gyy	.	8ryy	.	8ryy	.	16g'/LLyy	.	2ryy	.	2ryy	.	16gg\LLyy	.
.	.	.	.	.	.	.	.	.	.	16a/JJ	.	.	.	.	.	.	.	.	.	.	.	16a'/JJyy	.	.	.	.	.	16aa\JJyy	.
.	.	8ryy	.	8ryyyy	.	8G\ 8dyy	.	8B/ 8gyy	.	4b/	.	.	.	.	.	8ryy	.	8B/ 8gyy	.	8g/ 8ddyy	.	4b/yy	.	.	.	.	.	4bb^<\yy	.
.	.	8G\yy	.	8G\yyyy	.	8ryy	.	8ryy	.	.	.	.	.	.	.	8GG\ 8Gyy	.	8ryy	.	8ryy	.	.	.	.	.	.	.	.	.
.	.	8ryy	.	8ryyyy	.	8G\ 8dyy	.	8B/ 8gyy	.	16a/LL	.	.	.	.	.	8ryy	.	8B/ 8gyy	.	8g/ 8ddyy	.	16a/LLyy	.	.	.	.	.	16aa\LLyy	.
.	.	.	.	.	.	.	.	.	.	16g/JJ	.	.	.	.	.	.	.	.	.	.	.	16g/JJyy	.	.	.	.	.	16gg\JJyy	.
*	*	*	*	*	*	*Xrep	*	*Xrep	*	*	*	*	*	*	*	*Xrep	*	*Xrep	*	*Xrep	*	*	*	*	*	*	*	*	*
=45	=45	=45	=45	=45	=45	=45	=45	=45	=45	=45	=45	=45	=45	=45	=45	=45	=45	=45	=45	=45	=45	=45	=45	=45	=45	=45	=45	=45	=45
*	*	*	*	*	*	*	*	*	*	*	*	*	*	*	*	*	*	*	*	*^	*	*	*	*	*	*	*	*	*
2ryy	.	8D\yy	.	8D\yyyy	.	8ryy	.	8ryy	.	8f#/	.	2ryy	.	2ryy	.	8DD\ 8Dyy	.	8ryy	.	8ryy	8ryyyy	.	8f#/yy	.	8ryy	.	8ryy	.	8ff#\yy	.
.	.	8ryy	.	8ryyyy	.	8A\ 8dyy	.	8c/ 8f#yy	.	4dd^<\	.	.	.	.	.	8ryy	.	8d/ 8ayy	.	8dd/yy	8cc\yy	.	8ryy	.	4dd\yy	.	4dd^<\yy	.	4ryy	.
.	.	8D\yy	.	8D\yyyy	.	8ryy	.	8ryy	.	.	.	.	.	.	.	8DD\ 8Dyy	.	8ryy	.	8ryy	8ryy	.	4ryy	.	.	.	.	.	.	.
.	.	8ryy	.	8ryyyy	.	8A\ 8dyy	.	8c/ 8f#yy	.	8dd\	.	.	.	.	.	8ryy	.	8d/ 8ayy	.	8dd/yy	8cc\yy	.	.	.	8dd\yy	.	8dd\yy	.	8ryy	.
!!LO:PB:g=original
=46	=46	=46	=46	=46	=46	=46	=46	=46	=46	=46	=46	=46	=46	=46	=46	=46	=46	=46	=46	=46	=46	=46	=46	=46	=46	=46	=46	=46	=46	=46
*	*	*	*	*	*	*	*	*	*	*	*	*	*	*	*	*	*	*	*	*	*	*	*	*	*^	*	*	*	*	*
2ryy	.	8D\yy	.	16d\LLyy	.	8ryy	.	8ryy	.	16dd\LL	.	2ryy	.	2ryy	.	8DD/ 8Dyy	.	8ryy	.	8ryy	8ryyyy	.	2ryy	.	16dd/LLyy	2ryy	.	16dd'\LLyy	.	2ryy	.
.	.	.	.	16e\JJyy	.	.	.	.	.	16ee\JJ	.	.	.	.	.	.	.	.	.	.	.	.	.	.	16ee/JJyy	.	.	16ee'\JJyy	.	.	.
.	.	8ryy	.	8.f#\Lyy	.	8A\ 8dyy	.	8c/ 8f#yy	.	8.ff#\L	.	.	.	.	.	8ryy	.	8d\ 8ayy	.	8dd/yy	8cc\yy	.	.	.	8.ff#/Lyy	.	.	8.ff#\Lyy	.	.	.
.	.	8D\yy	.	.	.	8ryy	.	8ryy	.	.	.	.	.	.	.	8DD/ 8Dyy	.	8ryy	.	8ryy	8ryyyy	.	.	.	.	.	.	.	.	.	.
.	.	.	.	16e\Lyy	.	.	.	.	.	16ee\L	.	.	.	.	.	.	.	.	.	.	.	.	.	.	16ee/Lyy	.	.	16ee\Lyy	.	.	.
.	.	8ryy	.	16c\yy	.	8A\ 8dyy	.	8c/ 8f#yy	.	16dd\	.	.	.	.	.	8ryy	.	8d\ 8ayy	.	8dd/yy	8cc\yy	.	.	.	16dd/yy	.	.	16dd\yy	.	.	.
.	.	.	.	16A\JJyy	.	.	.	.	.	16cc\JJ	.	.	.	.	.	.	.	.	.	.	.	.	.	.	16cc/JJyy	.	.	16cc\JJyy	.	.	.
*	*	*	*	*	*	*	*	*	*	*	*	*	*	*	*	*	*	*	*	*v	*v	*	*	*	*	*	*	*	*	*	*
=47	=47	=47	=47	=47	=47	=47	=47	=47	=47	=47	=47	=47	=47	=47	=47	=47	=47	=47	=47	=47	=47	=47	=47	=47	=47	=47	=47	=47	=47	=47
2ryy	.	8GG/yy	.	8G\yy	.	8ryy	.	8ryy	.	8g/	.	2ryy	.	2ryy	.	8GG\ 8Gyy	.	8ryy	.	8ryy	.	8ryy	.	8g/yy	2ryy	.	4g/yy	.	8ryy	.
.	.	8ryy	.	4G^<\yy	.	8G\ 8dyy	.	8B/ 8gyy	.	4gg\	.	.	.	.	.	8ryy	.	8B/ 8gyy	.	8g/ 8ddyy	.	4g^>/yy	.	8ryy	.	.	.	.	4gg^<\yy	.
.	.	8G\yy	.	.	.	8ryy	.	8ryy	.	.	.	.	.	.	.	8GG\ 8Gyy	.	8ryy	.	8ryy	.	.	.	4ryy	.	.	4ryy	.	.	.
.	.	8ryy	.	8G\yy	.	8G\ 8dyy	.	8B/ 8gyy	.	8gg\	.	.	.	.	.	8ryy	.	8B/ 8gyy	.	8g/ 8ddyy	.	8g/yy	.	.	.	.	.	.	8gg\yy	.
=48	=48	=48	=48	=48	=48	=48	=48	=48	=48	=48	=48	=48	=48	=48	=48	=48	=48	=48	=48	=48	=48	=48	=48	=48	=48	=48	=48	=48	=48	=48
*	*	*	*	*	*	*rep	*	*rep	*	*	*	*	*	*	*	*rep	*	*rep	*	*rep	*	*	*	*	*	*	*	*	*	*
2ryy	.	8GG/yy	.	16G\LLyy	.	8ryy	.	8ryy	.	16gg\LL	.	2ryy	.	2ryy	.	8GG\ 8Gyy	.	8ryy	.	8ryy	.	16g'>/LLyy	.	2ryy	2ryy	.	2ryy	.	16gg\LLyy	.
.	.	.	.	16A\JJyy	.	.	.	.	.	16aa\JJ	.	.	.	.	.	.	.	.	.	.	.	16a'>/JJyy	.	.	.	.	.	.	16aa\JJyy	.
.	.	8ryy	.	4B\yy	.	8G\ 8dyy	.	8B/ 8gyy	.	4bb\	.	.	.	.	.	8ryy	.	8B/ 8gyy	.	8g/ 8ddyy	.	4b^>/yy	.	.	.	.	.	.	4bb\yy	.
.	.	8G\yy	.	.	.	8ryy	.	8ryy	.	.	.	.	.	.	.	8GG\ 8Gyy	.	8ryy	.	8ryy	.	.	.	.	.	.	.	.	.	.
.	.	8ryy	.	16A\LLyy	.	8G\ 8dyy	.	8B/ 8gyy	.	16aa\LL	.	.	.	.	.	8ryy	.	8B/ 8gyy	.	8g/ 8ddyy	.	16a'>/LLyy	.	.	.	.	.	.	16aa\LLyy	.
.	.	.	.	16G\JJyy	.	.	.	.	.	16gg\JJ	.	.	.	.	.	.	.	.	.	.	.	16g'>/JJyy	.	.	.	.	.	.	16gg\JJyy	.
*	*	*	*	*	*	*Xrep	*	*Xrep	*	*	*	*	*	*	*	*Xrep	*	*Xrep	*	*Xrep	*	*	*	*	*	*	*	*	*	*
*	*	*	*	*	*	*	*	*	*	*	*	*	*	*	*	*	*	*	*	*	*	*	*	*v	*v	*	*	*	*	*
==	==	==	==	==	==	==	==	==	==	==	==	==	==	==	==	==	==	==	==	==	==	==	==	==	==	==	==	==	==
*-	*-	*-	*-	*-	*-	*-	*-	*-	*-	*-	*-	*-	*-	*-	*-	*-	*-	*-	*-	*-	*-	*-	*-	*-	*-	*-	*-	*-	*-
!!!system-decoration: s1,s2,s3,s4[(s5,s6)]s7,s8,s9[(s10,s11)]s12,s13,s14,s15
!!!RDF**kern: > = above
!!!RDF**kern: < = below
!!!ENC:Anastazja Marusiak
!!!END:2021-04-22
!!!RDF**kern: | = vertical stroke
